/* XPM */
static char *_9481e995cd241c2ea63582f1eab07cax1x4RHW1mK197qPe[] = {
/* columns rows colors chars-per-pixel */
"64 64 214 2 ",
"   c #020C16",
".  c #040D1C",
"X  c #000411",
"o  c #06121C",
"O  c #0B131D",
"+  c #0F191D",
"@  c #071015",
"#  c #111B1F",
"$  c #10141F",
"%  c #040F21",
"&  c #0C1524",
"*  c #0E1926",
"=  c #0E1629",
"-  c #0E192C",
";  c #071226",
":  c #121B24",
">  c #131B2C",
",  c #141B26",
"<  c #0D1C37",
"1  c #141D31",
"2  c #162025",
"3  c #16202B",
"4  c #19212C",
"5  c #172131",
"6  c #1A2332",
"7  c #1E2B3C",
"8  c #132539",
"9  c #222933",
"0  c #222A3D",
"q  c #262B3B",
"w  c #2E353F",
"e  c #192940",
"r  c #2A3444",
"t  c #2E3C4B",
"y  c #283444",
"u  c #333C4A",
"i  c #2D3C53",
"p  c #313D54",
"a  c #35404E",
"s  c #3D414A",
"d  c #3A4453",
"f  c #354359",
"g  c #3D495F",
"h  c #334053",
"j  c #3A4B69",
"k  c #3D526F",
"l  c #41485A",
"z  c #47505F",
"x  c #444E63",
"c  c #445563",
"v  c #4C5463",
"b  c #42546C",
"n  c #4D5568",
"m  c #4C5A6E",
"M  c #4E5864",
"N  c #525B6D",
"B  c #585F6E",
"V  c #555B66",
"C  c #445776",
"Z  c #475D75",
"A  c #5A626C",
"S  c #4D617B",
"D  c #5A6372",
"F  c #5E6975",
"G  c #586677",
"H  c #60687B",
"J  c #65717F",
"K  c #566782",
"L  c #657384",
"P  c #687485",
"I  c #6E7C8C",
"U  c #6F7887",
"Y  c #727985",
"T  c #657692",
"R  c #6D7E9A",
"E  c #777F92",
"W  c #707E99",
"Q  c #768193",
"!  c #7D8394",
"~  c #788598",
"^  c #778AA6",
"/  c #7C91AC",
"(  c #828B9D",
")  c #8B939F",
"_  c #94999F",
"`  c #8B95A3",
"'  c #8D96A9",
"]  c #8797A9",
"[  c #949CA6",
"{  c #989CA5",
"}  c #959BAC",
"|  c #9A9CAB",
" . c #8395B4",
".. c #8A9AB4",
"X. c #8C9DBC",
"o. c #8898B6",
"O. c #949DB4",
"+. c #919FBB",
"@. c #999FB5",
"#. c #94A1AD",
"$. c #9DA3AF",
"%. c #8EA2BE",
"&. c #8FA0B4",
"*. c #96A4B5",
"=. c #9DA4B4",
"-. c #93A2BD",
";. c #9BA5BA",
":. c #9DAABB",
">. c #99A9B7",
",. c #A4A9B5",
"<. c #A3ACBC",
"1. c #A0A7BA",
"2. c #ABB4BE",
"3. c #8D9DC2",
"4. c #909FC0",
"5. c #8FA1C2",
"6. c #8FA1CA",
"7. c #93A4C5",
"8. c #9BAAC5",
"9. c #93A4CA",
"0. c #9CACCB",
"q. c #98A8CA",
"w. c #9DAFD5",
"e. c #9FB1D5",
"r. c #A3AEC2",
"t. c #A7AFC5",
"y. c #A5B2C2",
"u. c #AAB4C4",
"i. c #ACBAC5",
"p. c #A3B3CE",
"a. c #ABB5CA",
"s. c #ADBACB",
"d. c #B0B5C5",
"f. c #B4BBC6",
"g. c #B2BBCC",
"h. c #B9BDCB",
"j. c #A0AFD0",
"k. c #AEBBD4",
"l. c #A8B7D6",
"z. c #B3BDD1",
"x. c #B0BED8",
"c. c #BDC2CE",
"v. c #B7C2CB",
"b. c #B5C2D6",
"n. c #BAC4D6",
"m. c #B5C2DB",
"M. c #BBC5DA",
"N. c #BECADC",
"B. c #BBC8E2",
"V. c #C2CAD4",
"C. c #C3CBDD",
"Z. c #C9CDDA",
"A. c #C2C6D1",
"S. c #C2D1DD",
"D. c #CBD3DD",
"F. c #D4D5DE",
"G. c #C4CEE1",
"H. c #C6CFE4",
"J. c #C5D2E2",
"K. c #CBD4E5",
"L. c #CDD9E6",
"P. c #C4D4ED",
"I. c #CCD6EA",
"U. c #CDD9EB",
"Y. c #D1D6E3",
"T. c #D2DBE6",
"R. c #D2DCEC",
"E. c #DDDCEA",
"W. c #D7D8E6",
"Q. c #CDDAF1",
"!. c #D3DEF1",
"~. c #E1DFEA",
"^. c #D3E2ED",
"/. c #DBE3ED",
"(. c #D4E1F3",
"). c #DBE3F3",
"_. c #DDEAF4",
"`. c #DDE7FA",
"'. c #DCEBFB",
"]. c #E2E4ED",
"[. c #E5ECF5",
"{. c #EAEDF6",
"}. c #E5EDFA",
"|. c #E5EAF6",
" X c #F4EFF3",
".X c #ECF2F7",
"XX c #ECF3FC",
"oX c #F5F5F6",
"OX c #FCF6F6",
"+X c #F3F5FB",
"@X c #F6FDFF",
"#X c #F5FAFE",
"$X c #FAFAFA",
"%X c #FFFEFB",
"&X c #FFFFFB",
"*X c #FFFFFA",
"=X c #FEFDFA",
"-X c #FBFFFF",
";X c #FAFFFF",
":X c #FAFDFF",
">X c #FCFFFD",
",X c #FCFEFD",
"<X c #FEFFFD",
"1X c #FFFFFD",
"2X c #FFFEFC",
"3X c #FCFFFF",
"4X c #FDFEFF",
"5X c #FEFEFE",
"6X c #FFFEFF",
"7X c #FEFFFF",
"8X c white",
"9X c #FEFEFF",
"0X c #FEFCFD",
"qX c #FEFFFE",
/* pixels */
"8X8X8X8X8X8X8X8X8X8X8X8X8X8X8X8X8X8X8X8X8X8X8X8X8X8X8X8X8X8X8X8X8X:X:X:X8X8X:X:X8X8X8X8X8X8X8X8X8X8X8X8X8X8X8X8X8X8X8X8X8X8X8X8X",
"8X8X8X8X8X8X8X8X8X8X8X8X8X8X8X8X8X8X8X8X8X8X8X8X8X8X8X8X8X8X8X8X8X:X8X8X8X8X:X:X8X8X8X8X8X8X8X8X8X8X8X8X8X8X8X8X8X8X8X8X8X8X8X8X",
"8X8X8X8X8X8X8X8X8X8X8X8X8X8X8X8X8X8X8X8X8X8X8X8X8X8X8X8X8X8X8X8X8X8X8X8X8X8X8X8X8X8X8X8X8X8X8X8X8X8X8X8X8X8X8X8X8X8X8X8X8X8X8X8X",
"8X8X8X8X8X8X8X8X8X8X8X8X8X8X8X8X8X8X8X8X8X8X8X8X8X8X8X8X8X8X8X8X8X8X8X8X8X8X8X8X8X8X8X8X8X8X8X8X8X8X8X8X8X8X8X8X8X8X8X8X8X8X8X8X",
"8X8X8X8X8X8X8X8X8X8X8X8X8X8X8X8X8X8X8X8X8X8X8X8X8X8X8X*X8X*X8X8X8X8X8X8X8X8X8X8X8X8X8X8X8X8X8X8X8X8X8X8X8X8X8X8X8X8X8X8X8X8X8X8X",
"8X8X8X8X8X8X8X8X8X8X8X8X8X8X8X8X8X8X8X8X8X8X8X8X8X8X*X*X*X*X*X*X8X8X8X8X8X8X8X8X8X8X8X8X8X8X8X8X8X8X8X8X8X8X8X8X8X8X8X8X8X8X8X8X",
"8X8X8X8X8X8X8X8X8X8X8X8X8X8X8X8X8X8X8X8X8X8X8X8X*X*X*X*X*X*X*X*X*X*X*X*X*X*X8X8X8X8X8X8X8X8X8X8X8X8X8X8X8X8X8X8X8X8X8X8X8X8X8X8X",
"8X8X8X8X8X8X8X8X8X8X8X8X8X8X8X8X8X8X8X8X8X8X8X8X8X*X*X*X*X*X*X*X*X*X*X*X*X*X8X8X8X8X8X8X8X8X8X8X8X8X8X8X8X8X8X8X8X8X8X8X8X8X8X8X",
"8X8X8X8X8X8X8X8X8X8X8X8X8X8X8X8X8X8X8X8X8X8X8X8X$X8X8X$X8X8X8X8X8X8X8XoX8X*X8X*X8X8X8X8X8X8X8X8X8X8X8X8X8X8X8X8X8X8X8X8X8X8X8X8X",
"8X8X8X8X8X8X8X8X8X8X8X8X8X8X8X8X$X8X8X8X8X0X$XoX8XoXoX8X8X:X8X8X8X8X8X8X8X$X8X8X8X8X8X8X8X8X8X8X8X8X8X8X8X8X8X8X8X8X8X8X8X8X8X8X",
"8X8X8X8X8X8X8X8X8X8X8X8X8X8X8X8X8X8X8X$X0X8X8X8X8X8X8X+X#X:X8X8X:XoX8X8X8X:X8X:X8X8X8X8X8X8X8X8X8X8X8X8X8X8X8X8X8X8X8X8X8X8X8X8X",
"8X8X8X8X8X8X8X8X8X8X8X8X8X8X8X8X8X8X0X$X8X8X8X:XoX8XoX.X:X:X+X:X:XoX:X:X:X8X8X8X8X8X8X8X8X8X8X8X8X8X8X8X8X8X8X8X8X8X8X8X8X8X8X8X",
"8X8X8X8X8X8X8X8X8X8X8X8X8X8X8X8X8X8X8X8X8X$X+X#X8X:X:X:X+X[.|.[.XX[.XX@X@X:X:X8X8X8X8X8X8X8X8X8X8X8X8X8X8X8X8X8X8X8X8X8X8X8X8X8X",
"8X8X8X8X8X8X8X8X8X8X8X8X8X8X8X8X8X8X8X8X:X:X8X:X@X[ [ V.f.f.V.2.u.T._.#X@X#X@X:X:X8X8X8X8X8X8X8X8X8X8X8X8X8X8X8X8X8X8X8X8X8X8X8X",
"8X8X8X8X8X8X8X8X8X8X8X8X8X8X8X8X8X8X8X+X8X8X].c.F.d q ) g.<.<.:.i.^.u.i.v.V./.XX#X:X8X8X8X8X*X*X8X8X8X8X8X8X8X8X8X8X8X8X8X8X8X8X",
"8X8X8X8X8X8X8X8X8X8X8X8X8X8X8X8X8X8X:X#X8X#X{ w ,.K.).L.K.L.J.L.L.^.D t d F ,.V.oX+X@X8X8X8X8X*X8X8X8X8X8X8X8X8X8X8X8X8X8X8X8X8X",
"8X8X8X8X8X8X8X8X8X8X8X8X8X*X*X*X8X:X8X+X:X) r g.G.R.J.K.R.J.J.L.L.).y = o = 4 9 A _ 8X:X+X8X8X8X8X8X8X8X8X8X8X8X8X8X8X8X8X8X8X8X",
"*X*X8X8X8X8X8X8X8X8X8X8X8X*X*X*X+X:X:X@XXXu.` U.U.I.G.I.(.L.J.^.L.a.r & 5 3 o . + s { {.8X8X+X8X8X*X8X8X8X8X8X8X8X8X8X8X8X8X8X8X",
"*X*X8X8X8X8X8X8X8X8X8X8X8X*X*X*X8X:X.X[.V.d.U.R.U.I.U.L.N.S.S.^._.D 6 & > o : 4 :   9 f.8X8X{.8X8X*X8X8X8X8X8X8X8X8X8X8X8X8X8X8X",
"*X*X8X8X8X8X8X8X8X8X8X8X8X8X*X8X8X+X{.).u.y.R.M.H.G.I.J.U.'.N.u.u.a > . 3 & & & : : $ V A.:X:X:X8X8X8X8X8X8X8X8X8X8X8X8X8X8X8X8X",
"8X8X8X8X8X8X8X8X8X8X8X8X8X8X8X8X:X.X/.2.! =.R.`.!.(.R.M.g.v.i.u.=.[ V + : 4 , o o & > 9 [ XX#X:X8X8X8X8X8X8X8X8X8X8X8X8X8X8X8X8X",
"8X8X8X8X8X8X8X8X8X8X8X8X8X8X8X8X:X[.V.A r A ! ;.a.J.n.a.<.*.i.L.R./.h.Y : X 9 : > . o X Y E.}.@X:X8X8X8X8X8X8X8X8X8X8X8X8X8X8X8X",
"8X8X8X8X8X8X8X8X8X8X8X8X8X8X8X8X+XD.` u o > % = x O.;.b.(.L.R.K.T.C.[./.Y , = o & 4 > > U K.R.D.+X:X8X8X8X8X8X8X8X8X8X8X8X8X8X8X",
"8X8X8X8X8X8X8X8X8X8X8X8X8X8X8X8X|.) u o & > = = 0 M.(.L.L.M.R.K.K.D.Y./.XXY & 6 > > a y.L.g.<.R..X+X:X8X8X8X8X8X8X8X8X8X8X8X8X8X",
"8X8X8X8X8X8X8X8X8X0X0X8X0X:X8X+XV.v 5 > & > = 1 n U.K.L.J.R.J.L.Y.Z.W./.|.).g.` ' g.K.(.!.i.y.R.T.XX:X:X:X8X$X8X8X8X8X8X8X8X8X8X",
"8X8X8X8X8X8X8X8X8X8X0X8X:X8X8X{.=.u = & = 1 = > n G.K.I.L.L.G.L.K.Z.Y.K.).XXC.=.R.`.!.R.(.M.y.a.S.:X:X@X8X8X8X8X8X8X8X8X8X8X8X8X",
"8X8X8X8X8X8X8X8X8X8X0X8X:X8X8XW.B > . ; > 5 & 6 D C.K.U.K.L.G.K.K.K.K.Z./.XXK.<.`.).K.G.!.(.M.:.L.XX:X:X8X:X8X8X*X*X8X8X8X8X8X8X",
"8X8X8X8X8X8X8X8X8X8X8X8X0X8X+Xh.d > > > > = . 0 E G.U.U.K.R.K.K.K.K.Y.K.R.`.M.<.!.U.L.K.J.I.M.*.R.) XX:XoX8X8X*X*X*X8X8X8X8X8X8X",
"8X8X8X8X8X8X8X8X0X8X8X8X8X8X{.,.l > = = > > = u =.L.L.K.K.R.K.L.K.K.U.K.R.G.a.g.R.K.L.R.J.J.N.a.i.v T.:XoX8X8X8X*X*X8X8X8X8X8X:X",
"8X8X8X8X8X8X8X8X0X8X8X8X8X8X~.| N = . = > > & 0 u.G.U.K.K.L.U.K.U.K.K.K.K.z.u.U.U.C.J.U.I.I.U.J.' A ^.@X:X+X8X8X*X*X8X8X8X8X8X:X",
"8X8X8X8X8X8X8X8X8X8X:X8X8X8XE.[ ( y > 1 ; ; > r <.z.K.K.K.K.K.K.U.J.K.I.L.i.y.!.R.K.K.K.L.K.L.C.` c _.@X:X$X8X8X*X*X8X8X8X8X8X:X",
"8X8X8X8X8X8X8X8X8X8X$X8X8X0XE.| ;.p 1 - % 7 N } } y.K.U.H.H.K.U.I.I.U.L.U.i.1.U.G.K.U.K.K.L.U.J.#.* /.@X#X8X8X8X*X*X8X8X8X8X8X8X",
"8X8X8X8X8X8X8X8X8X8X0X:X8X8XW.| O.o.< e G O.b.C.n.N.a.n.!.I.Q.I.P.U.H.K.`.C.u.!.R.H.K.K.K.K.L.J.` 6 T.@X:X:X8X*X*X*X8X8X8X8X8X8X",
"*X*X8X8X8X8X8X8X8X8X8X8X8X8XF.| 8.3.j ^ m.m.k.b.U.U.z.z.G.P.Q.B.Q.Q.'.M.O.H v O.C.R.R.K.K.R.(.L.` , T.:X:X:X8X8X*X*X8X8X8X8X8X8X",
"*X*X8X8X8X8X8X8X8X8X8X8X8X8X~.u.q.o.C q.P.p.+.8.B.U.K.b.a.M.(.Q.b.O.*.P d > . v C.I.C.R.!.C.N.n.P M /.:X:X8X$X8X*X*X8X8X8X8X8X8X",
"*X*X8X8X8X8X8X8X8X8X8X0X0X8X+XY.:.%.C ^ q.7.-.7.-.b.!.I.z.z.b.<.L a y 5 = = . 0 ! C.K.C.C.R.).b.z V.XX+X8XoX8X8X*X*X8X8X8X8X8X8X",
"*X*X8X8X8X8X8X8X8X8X8X8X8X8X8X[.&.-.S ^ X.q.0.7.+.q.B.Q.U.M.Q r 3 O o : = & > = 1 ! C.R.U.K.J.y.D :X:X+X8X:X8X*X*X*X8X8X8X8X8X8X",
"*X*X8X8X8X8X8X8X8X8X8X8X8X8X0X{.*...Z / 7.7.q.3.0.4.q.x.Q.C.F     : + 3 : o 6 & . 0 E N.K.a.:.:.1.XX:X:X:X8X8X$X*X*X8X8X8X8X8X8X",
"8X8X8X8X8X8X8X8X8X0X8X8X8X8X0X.XN.>.b  .0.7.9.9.q.7.7.-.N.C.J : : 2 + + + & > = = & n ( ;.M.G.J./.{.8X8X:X8X8X8X8X8X8X8X8X8X8X8X",
"8X8X8X8X8X8X8X8X8X8X8X8X:X8X8X#X_.y.c ^ 7.5.9.9.3.9.7.X.m.G.F   # + # + : : . > 5 & I z.n.J.C.).{.8X:X8X8X$X$X8X8X8X8X8X8X8X8X8X",
"8X8X8X8X8X8X8X8X8X8X8X8X8X8X8X8X@Xi.t ~ p.q.3.6.6.9.3.q.J.J.L   2 + @ : 3 & = = . u a.R.M.R.L.K.8X8X8X8X8X8X8X8X8X8X8X8X8X8X8X8X",
"8X8X8X8X8X8X8X8X8X8X8X8X8X8X8X8X:X/.d t ] 0.X.w.9.6.7.X.8.s.I o o , 3 o   = > - d Q N.).L.D.T.[.8X8X8X8X8X8X8X8X8X8X8X8X8X8X8X8X",
"8X8X8X8X8X8X8X8X8X8X8X8X8X8X8X8X:X:X[ r h o.x. .e.X.5.0.8.8.L . =   > 3 > = % 6 P C.!.C.V.D.}.:X8X8X8X8X8X8X8X8X8X8X8X8X8X8X8X8X",
"8X8X8X8X8X8X8X8X8X8X8X8X8X8X8X8X8X:X:X[ r g X.7.X.7.0.5.X.-.T e t > 7 > ; - 1 x r.L.M.<.V.{.:X8X8X8X8X8X8X8X8X8X8X8X8X8X8X8X8X8X",
"8X8X8X8X8X8X8X8X8X8X8X8X8X8X8X8X8XOX8X+X$.0 p 8.-.%.%.X.T j R '.z.m g m f < p k.K.;.1.c.{.8X+X8X8X8X8X8X8X8X8X8X8X8X8X8X8X8X8X8X",
"8X8X8X8X8X8X8X8X8X8X8X8X8X8X8X*X*X8X0X:X8X) t f p.%.K k ^ 7.X.o.k.b.P.H.m.p.W K t.' C.}.:X8XoX8X8X8X8X8X8X8X8X8X8X8X8X8X8X8X8X8X",
"8X8X8X8X8X8X8X8X8X8X*X*X*X*X*X*XOX*X$X X8X@X#.7 8 S ^  .X.7.7.j.+.0.p.0.p.p.^ b -.n.+X:X+X8X8X*X*X*X8X8X8X8X8X8X8X8X8X8X8X8X8X8X",
"8X8X8X8X8X8X8X8X8X8X8X*X8X*X8X*X*X*X8X8X8X:X[.i.*.*.-.-.X.-.7.-.-.8.O...+.r.b.n.R.XX:X8X8X8X8X*X*X8X8X8X8X8X8X8X8X8X8X8X8X8X8X8X",
"8X8X8X8X8X8X8X8X8X8X8X8X8X8X8X8X*X*X8X8X8X8X8X:X@X}.R.C.g.1.@.;.} =.t.n.K.W.XX8X8X8X8X8X8X8X*X*X8X8X8X8X8X8X8X8X8X8X8X8X8X8X8X8X",
"8X8X8X8X8X8X8X8X8X8X8X8X8X8X8X8X8X*X8X8X8X8X8X8X:X:X8X8X+XY.h.d.h.V.].:X8X:X+X+X8X8X8X8X8X*X*X*X8X8X8X8X8X8X8X8X8X8X8X8X8X8X8X8X",
"8X8X8X8X8X8X8X8X8X8X8X8X8X8X8X8X8X8X8X8X8X8X8X8X8X:X:X8X8X:X:X:X:X#X:X8X8X8X8X8X8X8X8X8X8X*X*X*X8X8X8X8X8X8X8X8X8X8X8X8X8X8X8X8X",
"8X8X8X8X8X8X8X8X8X8X8X8X8X8X8X8X8X8X8X8X8X8X8X8X8X:X:X8X8X:X:X:X8X8X8X8X8X:X0X8X8X8X8X8X8X8X8X8X8X8X8X8X8X8X8X8X8X8X8X8X8X8X8X8X",
"8X8X8X8X8X8X8X8X8X8X8X8X8X8X8X8X8X8X8X8X8X8X8X8X8X8X8X8X8X:XoXoX:X:X0X8X8X8X0X:X8X8X8X8X8X8X8X8X8X8X8X8X8X8X8X8X8X8X8X8X8X8X8X8X",
"8X8X8X8X8X8X8X8X8X8X8X8X8X8X8X8X8X8X8X8X8X8X8X8X8X8X:X:X:X8X8X8X8X8X:X:X:X8X8X8X8X8X8X8X8X8X8X8X8X8X8X8X8X8X8X8X8X8X8X8X8X8X8X8X",
"8X8X8X8X8X8X8X8X8X8X8X8X8X8X8X8X8X8X8X8X8X8X8X8X8X8X8X8X8X8X:X$X8X8X8X8X8X8X8X0X8X8X8X8X8X8X8X8X8X8X8X8X8X8X8X8X8X8X8X8X8X8X8X8X",
"8X8X8X8X8X8X8X8X8X8X8X8X8X8X8X8X8X8X8X8X8X8X8X8X8X8X8X8X8X8X8X8X8X8X8X8X8X8X8X8X8X8X8X8X8X8X8X8X8X8X8X8X8X8X8X8X8X8X8X8X8X8X8X8X",
"8X8X8X8X8X8X8X8X8X8X8X8X8X8X8X8X8X8X8X8X8X8X8X8X8X8X*X*X*X*X*X*X8X8X8X8X8X8X8X8X8X8X8X8X8X8X8X8X8X8X8X8X8X8X8X8X8X8X8X8X8X8X8X8X",
"8X8X8X8X8X8X8X8X8X8X8X8X8X8X8X8X8X8X8X8X8X8X8X8X8X8X*X*X*X*X*X*X8X8X8X8X8X8X8X8X8X8X8X8X8X8X8X8X8X8X8X8X8X8X8X8X8X8X8X8X8X8X8X8X",
"8X8X8X8X8X8X8X8X8X8X8X8X8X8X8X8X8X8X8X8X8X8X8X8X8X8X8X8X8X8X8X8X8X8X8X8X8X8X8X8X8X8X8X8X8X8X8X8X8X8X8X8X8X8X8X8X8X8X8X8X8X8X8X8X",
"8X8X8X8X8X8X8X8X8X8X8X8X8X8X8X8X8X8X8X8X8X8X8X8X8X8X8X8X8X8X8X8X8X8X8X8X8X8X8X8X8X8X8X8X8X8X8X8X8X8X8X8X8X8X8X8X8X8X8X8X8X8X8X8X",
"8X8X8X8X8X8X8X8X8X8X8X8X8X8X8X8X8X8X8X8X8X8X8X8X8X8X8X8X8X8X8X8X8X8X8X8X8X8X8X8X8X8X8X8X8X8X:X8X8X8X8X8X8X8X8X8X8X8X8X8X8X8X8X8X",
"8X8X8X8X8X8X8X8X8X8X8X8X8X8X8X8X8X8X8X8X8X8X8X8X8X8X8X8X8X8X0X8X8X8X8X8X8X8X8X8X8X8X8X8X8X8X:X:X8X8X8X8X8X8X8X8X8X8X8X8X8X8X8X8X",
"8X8X8X8X8X8X8X8X8X8X8X8X8X8X8X8X8X8X8X8X8X8X8X8X8X8X8X8X0X0X0X0X8X8X8X8X8X8X8X8X8X8X8X8X8X*X*X8X8X8X8X8X8X8X8X8X8X8X8X8X8X8X8X8X",
"8X8X8X8X8X8X8X8X8X8X8X8X8X8X8X8X8X8X8X8X8X8X8X8X8X8X8X8X0X0X0X0X8X8X8X8X8X8X8X8X8X8X8X8X*X*X*X*X8X8X8X8X8X8X8X8X8X8X8X8X8X8X8X8X"
};
