/* XPM */
static char *b9215ea555b64afbdb3d832e03089271P1SusK4ojlMqo1l9[] = {
/* columns rows colors chars-per-pixel */
"64 64 256 2 ",
"   c black",
".  c #010101",
"X  c #020202",
"o  c gray1",
"O  c #040404",
"+  c gray2",
"@  c #060606",
"#  c #070707",
"$  c gray3",
"%  c #090909",
"&  c gray4",
"*  c #0B0B0B",
"=  c #0C0C0C",
"-  c gray5",
";  c #0E0E0E",
":  c gray6",
">  c #101010",
",  c #111111",
"<  c gray7",
"1  c #131313",
"2  c gray8",
"3  c #151515",
"4  c #161616",
"5  c gray9",
"6  c #181818",
"7  c #191919",
"8  c gray10",
"9  c #1B1B1B",
"0  c gray11",
"q  c #1D1D1D",
"w  c #1E1E1E",
"e  c gray12",
"r  c #202020",
"t  c gray13",
"y  c #222222",
"u  c #232323",
"i  c gray14",
"p  c #252525",
"a  c gray15",
"s  c #272727",
"d  c #282828",
"f  c gray16",
"g  c #2A2A2A",
"h  c gray17",
"j  c #2C2C2C",
"k  c #2D2D2D",
"l  c gray18",
"z  c #2F2F2F",
"x  c gray19",
"c  c #313131",
"v  c #323232",
"b  c gray20",
"n  c #343434",
"m  c #353535",
"M  c gray21",
"N  c #373737",
"B  c gray22",
"V  c #393939",
"C  c #3A3A3A",
"Z  c gray23",
"A  c #3C3C3C",
"S  c gray24",
"D  c #3E3E3E",
"F  c #3F3F3F",
"G  c gray25",
"H  c #414141",
"J  c gray26",
"K  c #434343",
"L  c #444444",
"P  c gray27",
"I  c #464646",
"U  c gray28",
"Y  c #484848",
"T  c #494949",
"R  c gray29",
"E  c #4B4B4B",
"W  c #4C4C4C",
"Q  c gray30",
"!  c #4E4E4E",
"~  c gray31",
"^  c #505050",
"/  c #515151",
"(  c gray32",
")  c #535353",
"_  c gray33",
"`  c #555555",
"'  c #565656",
"]  c gray34",
"[  c #585858",
"{  c gray35",
"}  c #5A5A5A",
"|  c #5B5B5B",
" . c gray36",
".. c #5D5D5D",
"X. c gray37",
"o. c #5F5F5F",
"O. c #606060",
"+. c gray38",
"@. c #626262",
"#. c gray39",
"$. c #646464",
"%. c #656565",
"&. c gray40",
"*. c #676767",
"=. c #686868",
"-. c DimGray",
";. c #6A6A6A",
":. c gray42",
">. c #6C6C6C",
",. c #6D6D6D",
"<. c gray43",
"1. c #6F6F6F",
"2. c gray44",
"3. c #717171",
"4. c #727272",
"5. c gray45",
"6. c #747474",
"7. c gray46",
"8. c #767676",
"9. c #777777",
"0. c gray47",
"q. c #797979",
"w. c gray48",
"e. c #7B7B7B",
"r. c #7C7C7C",
"t. c gray49",
"y. c #7E7E7E",
"u. c gray50",
"i. c #808080",
"p. c #818181",
"a. c gray51",
"s. c #838383",
"d. c #848484",
"f. c gray52",
"g. c #868686",
"h. c gray53",
"j. c #888888",
"k. c #898989",
"l. c gray54",
"z. c #8B8B8B",
"x. c gray55",
"c. c #8D8D8D",
"v. c #8E8E8E",
"b. c gray56",
"n. c #909090",
"m. c gray57",
"M. c #929292",
"N. c #939393",
"B. c gray58",
"V. c #959595",
"C. c gray59",
"Z. c #979797",
"A. c #989898",
"S. c gray60",
"D. c #9A9A9A",
"F. c #9B9B9B",
"G. c gray61",
"H. c #9D9D9D",
"J. c gray62",
"K. c #9F9F9F",
"L. c #A0A0A0",
"P. c gray63",
"I. c #A2A2A2",
"U. c gray64",
"Y. c #A4A4A4",
"T. c #A5A5A5",
"R. c gray65",
"E. c #A7A7A7",
"W. c gray66",
"Q. c #A9A9A9",
"!. c #AAAAAA",
"~. c gray67",
"^. c #ACACAC",
"/. c gray68",
"(. c #AEAEAE",
"). c #AFAFAF",
"_. c gray69",
"`. c #B1B1B1",
"'. c #B2B2B2",
"]. c gray70",
"[. c #B4B4B4",
"{. c gray71",
"}. c #B6B6B6",
"|. c #B7B7B7",
" X c gray72",
".X c #B9B9B9",
"XX c gray73",
"oX c #BBBBBB",
"OX c #BCBCBC",
"+X c gray74",
"@X c gray",
"#X c gray75",
"$X c #C0C0C0",
"%X c #C1C1C1",
"&X c gray76",
"*X c #C3C3C3",
"=X c gray77",
"-X c #C5C5C5",
";X c #C6C6C6",
":X c gray78",
">X c #C8C8C8",
",X c gray79",
"<X c #CACACA",
"1X c #CBCBCB",
"2X c gray80",
"3X c #CDCDCD",
"4X c #CECECE",
"5X c gray81",
"6X c #D0D0D0",
"7X c gray82",
"8X c #D2D2D2",
"9X c LightGray",
"0X c gray83",
"qX c #D5D5D5",
"wX c gray84",
"eX c #D7D7D7",
"rX c #D8D8D8",
"tX c gray85",
"yX c #DADADA",
"uX c gray86",
"iX c gainsboro",
"pX c #DDDDDD",
"aX c gray87",
"sX c #DFDFDF",
"dX c gray88",
"fX c #E1E1E1",
"gX c #E2E2E2",
"hX c gray89",
"jX c #E4E4E4",
"kX c gray90",
"lX c #E6E6E6",
"zX c #E7E7E7",
"xX c gray91",
"cX c #E9E9E9",
"vX c #EAEAEA",
"bX c gray92",
"nX c #ECECEC",
"mX c gray93",
"MX c #EEEEEE",
"NX c #EFEFEF",
"BX c gray94",
"VX c #F1F1F1",
"CX c gray95",
"ZX c #F3F3F3",
"AX c #F4F4F4",
"SX c gray96",
"DX c #F6F6F6",
"FX c gray97",
"GX c #F8F8F8",
"HX c #F9F9F9",
"JX c gray98",
"KX c #FBFBFB",
"LX c gray99",
"PX c #FDFDFD",
"IX c #FEFEFE",
"UX c white",
/* pixels */
"UXUXUXUXUXUXUXUXUXUXUXUXUXUXUXUXUXUXUXUXUXUXUXUXUXUXUXUXUXUXUXUXUXUXUXUXUXUXUXUXUXUXUXUXUXUXUXUXUXUXUXUXUXUXUXUXUXUXUXUXUXUXUXUX",
"UXUXUXUXUXUXUXUXUXUXUXUXUXUXUXUXUXUXUXUXUXUXUXUXUXUXUXUXUXUXUXUXUXUXUXUXUXUXUXUXUXUXUXUXUXUXUXUXUXUXUXUXUXUXUXUXUXUXUXUXUXUXUXUX",
"UXUXUXUXUXUXUXUXUXUXUXUXUXUXUXUXUXUXUXUXUXUXUXUXUXUXUXUXUXUXUXUXUXUXUXUXUXUXUXUXUXUXUXUXUXUXUXUXUXUXUXUXUXUXUXUXUXUXUXUXUXUXUXUX",
"UXUXUXUXUXUXUXUXUXUXUXUXUXUXUXUXUXUXUXUXUXUXUXUXUXUXUXUXUXUXUXUXUXUXUXUXUXUXUXUXUXUXUXUXUXUXUXUXUXUXUXUXUXUXUXUXUXUXUXUXUXUXUXUX",
"UXUXUXUXUXUXUXUXUXUXUXUXUXUXUXUXUXUXUXUXUXUXUXUXUXUXUXUXUXUXUXUXUXUXUXUXUXUXUXUXUXUXUXUXUXUXUXUXUXUXUXUXUXUXUXUXUXUXUXUXUXUXUXUX",
"UXUXUXUXUXUXUXUXUXUXUXUXUXUXUXUXUXUXUXUXUXUXUXUXUXUXUXUXUXUXUXUXUXUXUXUXUXUXUXUXUXUXUXUXUXUXUXUXUXUXUXUXUXUXUXUXUXUXUXUXUXUXUXUX",
"UXUXUXUXUXUXUXUXUXUXUXUXUXUXUXUXUXUXUXUXUXUXUXUXUXUXUXUXUXUXUXUXUXUXUXUXUXUXUXUXUXUXUXUXUXUXUXUXUXUXUXUXUXUXUXUXUXUXUXUXUXUXUXUX",
"UXUXUXUXUXUXUXUXUXUXUXUXUXUXUXUXUXUXUXUXUXUXUXUXUXUXUXUXUXUXUXUXUXUXUXUXUXUXUXUXUXUXUXUXUXUXUXUXUXUXUXUXUXUXUXUXUXUXUXUXUXUXUXUX",
"UXJXUXUXIXPXJXUXUXUXUXUXUXUXUXUXUXUXUXUXUXUXUXUXUXUXUXUXUXUXUXUXUXUXUXUXUXUXUXUXUXUXUXUXUXUXUXUXUXUXUXUXUXUXUXUXUXKXUXGXJXPXUXUX",
"LXUXUXIXUXJXUXjXNXNXNXNXNXNXNXNXNXNXNXMXMXMXmXmXMXMXNXNXMXMXMXNXMXMXMXMXMXMXMXMXmXmXMXMXMXNXNXNXNXNXNXNXNXNXNXNXZXPXVXIXUXKXUXLX",
"LXJXUXIX].N 1 # : : : : : : : : > > > > : : : : : : > > > > : : : : > > > > : : : : : : > > > > : : : : : : : : % > C ).UXUXLXPX",
"UXUXJX:.<     1 o o o o o o o o o o o O + + @ @ O O O + @ + O o o O + + + + O o @ @ + + O o o o o o o o o o o o -   . * >.SXUXUX",
"FXUX_.    ` -.O.1.1.1.1.1.1.1.1.1.1.1.1.2.2.2.2.2.1.<.1.3.3.2.<.1.1.2.2.2.2.1.1.2.2.2.2.1.1.1.1.1.1.1.1.1.1.1.1.>.+.U   , /.PXJX",
"UXSXL   W p.a.5.5.5.5.5.5.5.5.5.7.7.6.5.4.4.3.3.8.5.2.3.5.7.6.4.6.5.5.4.4.5.5.6.3.3.4.4.5.6.7.7.5.5.5.5.5.5.5.5.7.a.e.D . L CXUX",
"HXGXr   :.-.0   X X X X X X X X . . . . . . X X @ X       o o . O X         X O X X . . . . . . X X X X X X X X   f 4.`   t KXKX",
"IXzX*   r.8.  # - - - - - - - - @ # $ * - : , < < - $ # & - ; - : - * % % * - : < , : - * $ # @ - - - - - - - - %   ,.%.. > kXUX",
"UXMX2 @ 6.1.  @ . o.LXgXUXmXiXUXL.  u MXBXxXNXBXBXnXQ   (.UXxXcXcXxXUX(.  Q nXBXBXNXzXBXMXi   L.UXiXnXUXhXIXo.  @   ,.@.X : mXUX",
"UXnX< O 6.2.. & ; & E.GXNXUXUXIXxXZ + D.UXKXUXFXGXUX+.  N.FXUXPXPXUXFXN.  +.UXGXDXUXKXUXF.+ Z cXIXUXUXNXHXW.& - $ . ,.+.. : mXUX",
"UXvX> X 5.3.O ; i.    4XUXFXUXCXUXI.  k PXUXKXUXIXUXH.  ;.UXGXUXUXGXUX;.  H.UXIXUXJXUXPXk   U.UXCXUXDXUX5X    y.* o <.O.  ; mXUX",
"UXvX: . 4.3.+ : UXw.O , 7XAXIXVXnXbXv . P.NXcXNXnXMX.X@ K SXkXMXMXkXSXK @ .XMXnXMXcXNXP.. v nXmXCXPXZX7X< @ w.UX; + <.o.  - mXUX",
"UXnX> . 3.2.O : kXUXU   1 =   % + - O   + < 8 ; < < +   o w : = = : w o   + < < ; 7 < +   O - @ %   * 1 X Y UXjX: @ <.o.  - mXUX",
"UXnX, . 3.1.o - zXUXpX. X % 6 ; : = 1 X 2   o O -   3 1   % @ * * @ %   1 3   - o X   2 X 2 - > ; 6 $ X o aXUXkX: @ 1.O.  - MXUX",
"UXnX> X 4.2.o - SXJXlXw     ;.LXBXaXKXH.  v CXDXmXCXbXF   _.SXBXBXSX_.  F bXCXmXSXCXv   H.KXsXVXLX;.    e zXJXAX; + 1.+.  ; MXUX",
"UXvX> X 5.3.O ; zXUXmX- X =   P.KXUXUXGXz   Z.UXZXUXJX*.@ D.IXFXFXIXD.@ *.JXUXZXUXZ.  z GXUXUXLXP.  * X ; MXUXkX- + 1.+.. : MXUX",
"UXbX> X 3.1.O > MXDXAX; , b.  o ;XGXGXUXI.  Z ZXUXKXIXM.= &.UXGXGXUX&.= M.IXKXUXVXC   P.UXGXFX-XO   m.& 1 BXFXBX- @ 2.o.  : NXUX",
"UXbX> X 3.1.O : mXUXjX, 1 SXr.  - dXfXnXcXd O K.LXfXUX(.  L zXmXmXzXL   (.UXfXLXL.+ f bXMXhXhX:   t.GX= 5 dXUXNX= @ 2.o.  : NXUX",
"UXbX> . 3.2.O ; mXCXCX# , DXUXQ @ & 6 4 3 ;   O @ 1 <     - $ 1 1 $ -     < 1 @ o   - 3 3 7 & @ Q UXGX% - NXCXNX* + 2.O.  > NXUX",
"UXnX>   3.3.O * gXUXmX@ ; iXCXxXO   > # $ ;   > : = & 7     < = = <     7 & = : ;   = @ @ :   o xXCXsX$ - vXUXhX& O 1.O.  > NXUX",
"UXnX>   3.4.o $ ZXCXBX> < DXUXbX4 @ aXFXVXjX2 O vXjXVXfX1 , iXmXmXiX, 1 fXVXjXvX+ 2 kXCXHXdX$ 7 vXUXHX= 5 mXVXZX% o 1.O.  > NXUX",
"UXnX>   3.5.o @ %./.zX. 7 hXPXcX+ 0 mXUXUXjX: : mXUXUXMX> + MXUXUXMX+ > MXUXUXmX: : jXUXUXmXq @ zXPXlX1 $ jX/.%.# o 1.O.  > NXUX",
"UXmX>   3.6.o O   = 7   ; 9XUXbX- = AXHXUXGX+ 1 vXPXIXZX* = BXGXGXBX= * ZXIXPXvX> o DXUXFXZX* = cXUXeX$ X 4 *   @ X <.O.  > NXIX",
"UXmX>   2.6.o o t.H   O @   S p.= & eXAXSXtX* - iXAXZXsX& : uXFXFXuX: & sXZXAXiX; * yXDXSXtX= ; u.S   . =   G r.@ X <.O.  > NXIX",
"UXbX> X 4.2.O ; NXUX1X$ O &   .   o * : : * o   # : < # O o # ; : # X O $ 1 > #   o * : : * o   o   & + $ 1XUXmX; O <.+.X > MXUX",
"UXbX> X 4.2.O ; xXHXmXt : wX2X| # X = - - = X # , * : +   - & 2 3 & =   @ > * > # X = - - = X # | 2XwX: y mXHXcX; O <.+.X > MXUX",
"UXbX> X 4.2.O ; bXUXvX  # PXJXxX$ = sXVXVXsX= $ pXFXZXzX-   gXMXMXfX  = xXAXFXiX$ = sXVXVXsX= $ lXHXLX@ . bXUXnX; O <.+.X > MXUX",
"UXbX> X 4.2.O ; VXSXAX. ; VXPXZX; ; nXUXUXnX; ; BXPXJXBX: , NXIXUXNX> : VXLXPXBX; ; nXUXUXnX; ; CXPXBX- . AXDXCX; O <.+.X > MXUX",
"UXbX> X 4.2.O ; MXLXZX: 4 kXHXcX; ; nXUXUXnX; ; BXPXJXBX: , NXIXUXNX> : VXLXPXBX; ; nXUXUXnX; ; vXJXlX4 : ZXKXMX; O <.+.X > MXUX",
"UXbX> X 4.2.O ; bXUXjX% = VXUXBX$ = sXVXVXsX= $ pXFXZXzX-   gXMXMXfX  = xXAXFXiX$ = sXVXVXsX= $ VXUXCX= % hXUXcX; O <.+.X > MXUX",
"UXbX> X 4.2.O ; MXGXCX3 & BXkXw.# X = - - = X # , * : +   - & 2 3 & =   @ > * > # X = - - = X # w.kXBX& 3 CXGXMX; O <.+.X > MXUX",
"UXbX> X 4.2.O ; VXGXSXO - ~ # @   o * : : * o   # : < # O o # ; : # X O $ 1 > #   o * : : * o   + + ! - O DXHXCX; O <.+.X > MXUX",
"UXnX>   2.4.@ ; BXcXf.  + . # ` + ; qXDXZXeX5 @ kXnXGXcX  % kXMXNXjX$   vXHXnXkX+ 4 eXCXDXqX; @ ] $ . O   g.xXMX; @ 1...  ; NXUX",
"UXnX, . 3.3.X $ / & #     v.dXbX; - PXPXAXCX; 2 kXUXHXcX3 < mXUXUXmX, 2 vXJXUXkX1 ; VXAXPXPX; : mXdXv.    # & ^ $ X <.X.  : NXUX",
"UXnX< o 5.2.  o   , P < & gXUXcX6 = aXUXUXlX& $ DXUXUXDX: % ZXJXJXZX$ ; DXUXUXSX# % lXUXUXaX- 7 vXUXdX% 1 I <   X   ,.O.. , NXIX",
"UXnX< X 5.3.  O i.zXVX< 1 bXIXcX+ 3 hXVXCXgX6 6 fXnXAXeX- ; iXJXKXiX- = eXSXnXdX5 6 fXCXVXhX3 @ cXLXcX< 1 CXxXi.O   <.+.X , NXIX",
"UXnX,   3.4.O & mXJXnX& $ xXHX9XO @ O > 4 X     ; 3 = 6 O O < + @ < o o 6 - 3 -     X 4 , + @ + 9XGXlX# * mXKXmX& + 2.+.. , BXUX",
"UXnX:   2.5.# : jXUXCX& X UX%X*   > * $ , : < 8 # % & @ : 4 $ 1 2 $ 3 ; # * % @ 7 , : , $ * ,   = %XUX. * AXUXhX; $ 3.O.  > BXUX",
"UXbX:   1.4.@ ; KXLXuX7 < <.>   X.fXJXmXzXnXUXpXDXcXZXCXxXnXMXxXcXmXbXzXCXAXvXSXpXUXnXzXmXJXfXX.  > ,.< 8 uXLXHX- # 3.O.  : NXUX",
"UXbX;   1.3.O * lXUXVX> & X   v.IXUXPXGXUXUXVXUXLXUXKXGXUXLXLXUXUXLXKXUXHXLXUXLXUXVXUXUXGXIXUXUXn.  X & > CXUXjX& + 2.O.  : MXIX",
"UXxX;   9.<.X ; AXHX<X@ o ; ^.UXUXUXUXUXUXUXUXUXUXUXUXUXUXUXUXUXUXUXUXUXUXUXUXUXUXUXUXUXUXUXUXUXUX/.: O @ ,XGXCX- X 3.O.X ; MXUX",
"IXmX>   7.:.o - cX X5 . b gXCXGXUXUXUXUXUXUXUXUXUXUXUXUXUXUXUXUXUXUXUXUXUXUXUXUXUXUXUXUXUXUXUXUXHXZXgXb . 4  XxX- X -.} o * ZXUX",
"UXBX* @ 3.>.; , p.#   ] MXDXUXUXUXUXUXUXUXUXUXUXUXUXUXUXUXUXUXUXUXUXUXUXUXUXUXUXUXUXUXUXUXUXUXUXUXUXDXMX]   @ i.> * ;.} $ # AXIX",
"UXmX- $ } _ O     . s.UXFXDXUXGXUXUXUXUXUXUXUXUXUXUXUXUXUXUXUXUXUXUXUXUXUXUXUXUXUXUXUXUXUXUXUXUXGXUXDXFXUXa..       ] / : - BXHX",
"UXcX,   * ,   % 9 |.JXZXUXUXFXUXUXUXUXUXUXUXUXUXUXUXUXUXUXUXUXUXUXUXUXUXUXUXUXUXUXUXUXUXUXUXUXUXUXFXUXUXZXKX X0 $   2 *   2 MXUX",
"UXcX_ 6 * % ; k 7XKXKXUXCXUXLXUXUXUXUXUXUXUXUXUXUXUXUXUXUXUXUXUXUXUXUXUXUXUXUXUXUXUXUXUXUXUXUXUXUXKXUXCXUXKXKX8Xc * % * 4 _ NXUX",
"JXUXNXnXMXNXAXUXUXUXPXUXUXIXHXUXUXUXUXUXUXUXUXUXUXUXUXUXUXUXUXUXUXUXUXUXUXUXUXUXUXUXUXUXUXUXUXUXUXGXIXIXUXPXUXUXUXBXMXVXlXMXUXJX",
"UXPXUXUXIXIXIXJXFXUXIXGXUXUXUXUXUXUXUXUXUXUXUXUXUXUXUXUXUXUXUXUXUXUXUXUXUXUXUXUXUXUXUXUXUXUXUXUXUXIXUXUXGXUXUXHXKXHXUXUXPXUXUXUX",
"UXUXUXUXUXUXUXUXUXUXUXUXUXUXUXUXUXUXUXUXUXUXUXUXUXUXUXUXUXUXUXUXUXUXUXUXUXUXUXUXUXUXUXUXUXUXUXUXUXUXUXUXUXUXUXUXUXUXUXUXUXUXUXUX",
"UXUXUXUXUXUXUXUXUXUXUXUXUXUXUXUXUXUXUXUXUXUXUXUXUXUXUXUXUXUXUXUXUXUXUXUXUXUXUXUXUXUXUXUXUXUXUXUXUXUXUXUXUXUXUXUXUXUXUXUXUXUXUXUX",
"UXUXUXUXUXUXUXUXUXUXUXUXUXUXUXUXUXUXUXUXUXUXUXUXUXUXUXUXUXUXUXUXUXUXUXUXUXUXUXUXUXUXUXUXUXUXUXUXUXUXUXUXUXUXUXUXUXUXUXUXUXUXUXUX",
"UXUXUXUXUXUXUXUXUXUXUXUXUXUXUXUXUXUXUXUXUXUXUXUXUXUXUXUXUXUXUXUXUXUXUXUXUXUXUXUXUXUXUXUXUXUXUXUXUXUXUXUXUXUXUXUXUXUXUXUXUXUXUXUX",
"UXUXUXUXUXUXUXUXUXUXUXUXUXUXUXUXUXUXUXUXUXUXUXUXUXUXUXUXUXUXUXUXUXUXUXUXUXUXUXUXUXUXUXUXUXUXUXUXUXUXUXUXUXUXUXUXUXUXUXUXUXUXUXUX",
"UXUXUXUXUXUXUXUXUXUXUXUXUXUXUXUXUXUXUXUXUXUXUXUXUXUXUXUXUXUXUXUXUXUXUXUXUXUXUXUXUXUXUXUXUXUXUXUXUXUXUXUXUXUXUXUXUXUXUXUXUXUXUXUX",
"UXUXUXUXUXUXUXUXUXUXUXUXUXUXUXUXUXUXUXUXUXUXUXUXUXUXUXUXUXUXUXUXUXUXUXUXUXUXUXUXUXUXUXUXUXUXUXUXUXUXUXUXUXUXUXUXUXUXUXUXUXUXUXUX",
"UXUXUXUXUXUXUXUXUXUXUXUXUXUXUXUXUXUXUXUXUXUXUXUXUXUXUXUXUXUXUXUXUXUXUXUXUXUXUXUXUXUXUXUXUXUXUXUXUXUXUXUXUXUXUXUXUXUXUXUXUXUXUXUX"
};
