/* XPM */
static char *_bc4d706b3cd43cdb289380a36e004e15ojG215dvepMaOE2[] = {
/* columns rows colors chars-per-pixel */
"64 64 149 2 ",
"   c #5FCF3C",
".  c #64CF3B",
"X  c #65D23E",
"o  c #6BD53E",
"O  c #6CD83E",
"+  c #71D63E",
"@  c #72D93F",
"#  c #79DF3E",
"$  c #5FCF47",
"%  c #5FD94A",
"&  c #65D543",
"*  c #6AD644",
"=  c #66D945",
"-  c #6CDA46",
";  c #65D649",
":  c #6BD649",
">  c #66D94A",
",  c #6CDB4A",
"<  c #71D743",
"1  c #72DB45",
"2  c #7ADD45",
"3  c #71D748",
"4  c #72DD4B",
"5  c #7ADE4A",
"6  c #66DE51",
"7  c #6DDD51",
"8  c #71DE51",
"9  c #65E14F",
"0  c #6EE14D",
"q  c #75E146",
"w  c #7CE246",
"e  c #76E54E",
"r  c #74E24D",
"t  c #78E149",
"y  c #7EE24A",
"u  c #78E54A",
"i  c #79E34D",
"p  c #7BE34E",
"a  c #7FE14C",
"s  c #7FE34D",
"d  c #7DE34F",
"f  c #78E54E",
"g  c #7AE44E",
"h  c #79E64F",
"j  c #7DE74F",
"k  c #7BE44D",
"l  c #75E84F",
"z  c #7CE94E",
"x  c #66E253",
"c  c #6FE553",
"v  c #6DE152",
"b  c #71E151",
"n  c #73E051",
"m  c #73E350",
"M  c #72E250",
"N  c #75E150",
"B  c #74E150",
"V  c #75E350",
"C  c #77E351",
"Z  c #76E251",
"A  c #74E152",
"S  c #77E352",
"D  c #76E352",
"F  c #72E451",
"G  c #73E552",
"H  c #76E451",
"J  c #75E650",
"K  c #76E751",
"L  c #75E553",
"P  c #77E453",
"I  c #74E653",
"U  c #73E454",
"Y  c #74E451",
"T  c #78E450",
"R  c #79E551",
"E  c #7AE750",
"W  c #79E553",
"Q  c #78E453",
"!  c #7BE753",
"~  c #7EE450",
"^  c #7EE651",
"/  c #79E554",
"(  c #7AE655",
")  c #7BE756",
"_  c #7BE552",
"`  c #77E850",
"'  c #77E853",
"]  c #7AE851",
"[  c #7BE851",
"{  c #7CE952",
"}  c #7EED53",
"|  c #7CE854",
" . c #7EEB54",
".. c #7CE857",
"X. c #7EEA56",
"o. c #7FEC55",
"O. c #7CE954",
"+. c #7AE758",
"@. c #7CEB59",
"#. c #82DD42",
"$. c #82DF4A",
"%. c #83E146",
"&. c #8AE446",
"*. c #80E049",
"=. c #81E14A",
"-. c #84E14B",
";. c #83E34C",
":. c #82E54D",
">. c #82E74D",
",. c #83E64E",
"<. c #84E44D",
"1. c #83E44C",
"2. c #89E64A",
"3. c #80E94E",
"4. c #81EA4F",
"5. c #85E84E",
"6. c #8BE94D",
"7. c #94EA47",
"8. c #92EB4C",
"9. c #97F24F",
"0. c #82E652",
"q. c #88E650",
"w. c #80EA52",
"e. c #81EB53",
"r. c #85E850",
"t. c #83EA53",
"y. c #88EB52",
"u. c #8AEA52",
"i. c #8BEB53",
"p. c #8CEB51",
"a. c #8BEC51",
"s. c #8DEC52",
"d. c #8CED52",
"f. c #8CEC54",
"g. c #87ED5B",
"h. c #86EE5B",
"j. c #83ED59",
"k. c #89EC5B",
"l. c #8DEE58",
"z. c #92EF56",
"x. c #92EE54",
"c. c #94EF59",
"v. c #87F056",
"b. c #86F05C",
"n. c #8DF159",
"m. c #93F057",
"M. c #92F157",
"N. c #94F155",
"B. c #92F25A",
/* pixels */
": - & f f r * C # 3.o.4 - < , 6 X 4 e } , X , & > & - g.k.5 : ; : - & e e r * C # 3.X.4 - < , 6 X 4 e } , X , ; , ; : b.g.5 : ; ",
"* - - T T r * : w e.X.r 2 5 r , , , ` e , q r : c , * 4 < - M 7 * - - S T r * : w e.X.r 2 5 r , , , e e - 4 4 : U , * 4 4 - C 7 ",
"4 4 4 - 4 : : 4 q T P 4 5 :.d : G - P , - X.r 5 0 , * - - * M , 4 4 4 - 4 : : 4 q T P 4 5 :.d : G - e , - T 4 5 r , * - - - M , ",
"C C r X 4 4 r 4 - , : 3 ;.p.r.< , & , , - t 1 p , - - r 4 - , ; r C r & 4 4 C 4 - , : 4 ;.s.r.1 , & , , 4 t 4 f 1 - - r , - , ; ",
"q r T - ) T C & * - ; - ;.z.u.1 & ; & C r o 1 j { , * M , ; 4 r 1 r T - @.) C * - - - - ,.M.u.1 & ; * P r o 1 j { , - M 4 ; r M ",
"t f r - C ) r * 4 , , 4 :.M.u.2 * 4 * ) T X 1 { X., - P r * 5 ^ t f r - C ) r * 4 0 - 4 :.M.u.1 * 4 * ) T X 1 { X., - P C * r ^ ",
"u { 4 * : 8 4 4 r r , : y s.3.- y p 4 4 C : , P r : = G r < d -.u { 4 * * 8 4 4 r r , - y f.:.- t p 4 4 r - - P r - - C r < d :.",
"1 z 4 4 * 4 * - , 0 - * 1 ,.y o r.j p . : P - 0 4 : ; - * < q.2.1 z 4 4 & , * : , , - * 1 :.y o r.j p & : ) - r 4 : ; - - < u.6.",
", M & : 4 0.- > T T 4 - , - ; ; %.n.5 > , ; : - > & { 1 - 4 k.z.: M & - y e.- , T T 4 : , - & ; %.n.4 ; , ; : * > & { 1 - 4 t.l.",
"q & ; : j.< * 7 t r 4 - : , - , 2 0.4 - M , - - , - j < : 4 ^ 5 4 ; ; : t.+ X , q C 4 - : , - , 2 e.4 : C 4 - - , - j < : 4 ^ 5 ",
"- - M 4 r.2 4 , 1 f r - , r , , , , < < ^ T * , : < t.< - - : o : - M 4 r.1 4 , 1 f r - , r 0 , , , 4 2 0.T * - - < e.< : - 4 - ",
"* r 4 0.;.r.4 , t { r - 4 P r , 6 ; - 1 r.e.& , * y B.p - > , - * r r e.;.r.5 7 q { r - q T r : 6 & - 1 0.0.& 0 * y B.p - > , , ",
"r - * n.s.,.- 7 t T q * 4 T q * 6 & : 1 y.e.* M - d M.y , , 0 r r * * k.6.,.- 7 q f 4 * q T r * x & - 2 r.e.& M - d M.y , , 0 r ",
"T & 4 ,.N.%.5 ; , q - & 4 P 4 - , , : 4 { f - C : 1 y o M G 0 q T * 4 ,.N.%.5 ; , q - * 4 P 4 - > - , r e.T * r 4 1 y - M M 0 q ",
"r - p ;.8.2.^ & - , - * 4 4 4 4 - r - , G , 4 f , * - . M M , 1 T 4 j %.8.2.( $ = , - * 4 4 4 4 - r - , P , , e , - 1 . M r - 1 ",
"X.- < B.8.2.< , > , , : 4 : : r + f = > 6 ; 4 j v , 1 * P , - y O.* @ B.8.%.4 6 > , , : 4 : : 4 @ f ; ; , & q j v - 1 o P , < y ",
"M , - 4 ) , & r X r , * < 4 4 > 5 P , & - - ; v - - - - : : 4 8 P - - P T , - 4 X 0 , = 1 4 , ; , G , & - * = x , - - - , , , 4 ",
"; ; & - r , : P 4 r - , y O * 6 * P P 4 4 4 * , - , r 4 : , , : - & & - 4 , 4 +.4 r , , y - & , ; P r , 4 < ; > - , r 4 4 , : : ",
"M r , , - & & ; - O.M * y :.4 4 : r , , 0.0.- X - f X.r : 4 , * M M , - - & & - - @.M * y :.4 , : r , < :.0.1 X < f ) r : , : * ",
", , , , , , , - X ' M X ;.M.d 3 r , X - k.k.2 - 1 e.e.1 * 4 8 : * 4 , , r 0 - , & ' M X y M.y < 4 , X < s.u.1 - 1 e.e.4 * 4 4 : ",
"* - - - r P r , , - = - u.s.< - - - - f k.;.1 ^ 1 e.e.1 * r C : X - - = P ' , , , - > * r.s.+ < - - - j l.$.1 ^ 1 { e.4 * 4 C , ",
"j { 1 - P M - * , & , - :.n.2 - - - - { n.;.2 ^ - p T 4 4 T P : d e.1 & P M * : 4 & - - :.n.4 : - - - ^ M.;.2 ^ - p T 4 4 r C : ",
";.k.1 O { T - _ 1 & G - 1 v.S , q , = 4 j.0.4 , ; , 4 , r { r * ,.r.1 o e e < _ 4 & M - 2 k.S - , , & 4 t.0.- - ; , 4 , r T C - ",
"-.l.1 X z q o e.X.  0 r - 4 & 6 , P , X < 3 : , , , - - r O.f - -.u.1 O f q - ^ e.. , r - 2 & , , G , X 3 3 * , , - - - 4 T f 1 ",
"r f 4 & ; v r + w 4 > > , - * - z q - & - : * P f - 4 * * ) q , t f 4 & ; v r + w 4 > > , - * - u - - * - : & r f - 4 : - ) 4 4 ",
"4 * - , , ; 4 f.5.j , > , 4 : r u u e , : - & r { - & : 4 C r * 4 * - , 6 ; 5 k.5.j , > , - : M u q e , : * & 4 X.- X : 4 r r * ",
"r * - P 7 & < l.6.:., - , 4 , v u e P , : 4 * 4 P C - C 4 & C 4 r * - P v & < l.6.:., - , - : M u e P , : 4 * , f r * C 4 & r 4 ",
"0 , - , , - 3 ;.8.1.- - r r - > f r , & 4 ) , : C C r T 4 * r 4 v , - , , - 2 ;.8.1.4 - r 4 - - T r , & 4 ) : - r r 4 T 4 * r 4 ",
"= , 4 , - 8 S ;.9.5.4 , T T : > r 4 , * r O.: * P - , - 4 ) 4 * > , 4 , , 8 S ;.9.5.4 , P r : > r 4 , * r O.: * P - , - 4 ) 4 - ",
"= , f r , - 5 t.N.:.: - r r , , * : P 4 4 4 & - , & 4 * * T - * > , f r , - 5 r.N.:., - r r , , * , P 4 q 4 & : , & r * * ) 4 * ",
", r j f 4 ; : p 1.y - > , 4 - , ; : C 4 , - & 8 ; - r q * - 4 4 , r j f 4 ; : p 1.y - > , - - , : : P 4 , - & M & - e 4 * - 4 4 ",
"- 4 y 4 , v , * @ 4 , > , - * , , : - * - : - +., , - { f - S 4 - q y 1 , v , * + - , > , - * , 8 - - * - : - @., 4 , f r - S 4 ",
"O t f r 4 4 : * X., > , : * - - e - = - ; - j r.* , r , < ,.:.o - t u q - 4 : * @., 0 = 4 & , , q - - , - : y :.X 4 P q 2 :.:.O ",
"* r O.e , - , r * - , - 4 5 4 = 1 - 0 M , 4 2 2 : r P t 5 q.u.2 * r j u , - , r * , - - < 5 4 = r , , 0 - 4 y 2 4 r P t 2 0.u.y ",
"* , r , - - , r - r r 4 ^ ^ , - t q , , 4 ^ r.-., , 0 q 5 u.s.1.; : t q - * : r : T , r 5 0.- , u q r , 4 ^ f.%.4 , 0 4 5 u.l.3.",
", ; ; ; - , , , T f 1 y l.5 o r { e , & - 0.M.8.: - - - 2 s.l.w , ; & * - , , , ) T 1 j u.5 o r j e 4 * - r.M.6.* - - - 2 l.l.w ",
"4 : * : 4 r r q : - O w z.2 X 0 T e 4 - - :.l.%.4 , - & 2 l.k.1 8 : - - , M r q 4 - O 2 z.2 o 0 { f 4 & - :.s.&.: , - * 2 l.l.@ ",
": r C 4 - 4 r r & - 1 %.x.,.- > r r , : 4 t.z.&.r , , * < 0.^ X : r e 4 : 4 r f * * q w B.;.- = r r , : 4 r.s.&.C , - & - 0.^ o ",
"1 f ^ 1 - 4 p r 7 : w s.x.,.: % r , - - : 0.z.6.5 - - , : 4 : ; < u j 1 - 4 p u , : y u.c.0.4 = - - - - 4 r.s.2.4 - - , * : : = ",
"w j u - 1 j ^ 4 v   O s.x.5 * 6 - ; - - : p -.#.4 & - G 4 * > v 1 j y 1 4 ( ^ 1 v & o z.p.$.* 9 , > ; ; * 5 ,.%.- X , +.4 & ; v ",
"t { T - - r { e , - , 8 8 : : r 4 X.T * * : - ; - * o - , , 0 G 1 g.X.* : P f p - - - , , , 4 4 4 ) T * * - ; ; , - * < 1 4 0 G ",
"4 T C : * 4 r , - - , - : * - - : C r - 4 r , , r 4 4 e r , - - - X.P * : C 4 4 - - - , - : - - - r r : 4 4 , - r , r f r , - > ",
"* , 4 - : : - & ; - - : - 4 4 4 * - - 4 P C : - , : 4 f e , - - * 4 : - , : * * - - - , , : 4 C * - - 4 P C : - - : 4 T r , - - ",
"* * - - - , : - : - : , 4 4 r T 4 - * , ) r * * - * : r r - - 4 - * - - , - * - 4 - : , 4 4 r ) 4 - * 4 ) C * * - * - r r 4 4 4 ",
": : - , , , 4 4 p < - r , * * p _ 4 * , O.r - : r , 4 P C 4 1 y r - - v , - : 4 p 4 : , , * - r e.4 - , O.M - - 4 : 4 P T 4 4 p ",
"r 4 - , , - : r e.< * M r & * ^ e.t * - G , : r 4 : 4 ) T 4 1 j r - - M , - 4 r d 4 - r , * - p e.t * - M , - t 4 : 4 ) ) 4 4 j ",
"p 4 : 0 , - < d :.1 - e G - 4 e.e.t * = , - - p : * - r C < 5 r.p * : 4 - - 4 p :.< - M G - 1 e.:.t * ; , - - y : * - M r < 4 r.",
"d 1 q P M - 4 t.r.y q r 0 - 4 ^ e.f - = , - , j r - ; , : - y k.j < 4 T : - f ^ k.5 4 P r - , e.3.p : ; , - - f C - ; - : - 1 k.",
", r t f C - - e.r.4 & - , = 4 T e.4 ; @.* e.T , - , : 7 8 - t j., 4 t f r * - { k.4 X - , = , S e.4 ; @.* e.T , , r : 7 7 * p j.",
"- 4 t r 4 : 4 { e.r * = > & * - 1 * > , - 1 r ; = , - 8 C - < p : , t r 4 : : { t.4 & = - & * - 5 * > , - 1 4 ; = , - 8 C - < p ",
": r f e , - : 4 t 4 - - , r 5 5 < & 7 & 4 O 4 > : - * r T * - - : r f e 4 - : 4 4 - - , , 4 5 S < & , & 4 o 4 > ; - - r T - * - ",
"- r ` P 7 7 : * * - , , , ) S _ 4 , M & ^ < 4 , 7 4 * q f - - : * q { P 8 7 : * * - r , , ) S _ 4 , M & ^ < r , 7 4 * q f - * : ",
"& * 0 , - 8 S 1 - , { , - 4 * - 4 M , - e.0.4 , P C - u j q 4 8 & * q 0 , 8 S 1 - , ` , - 4 * * q M , - e.0.5 , +.C - u j 4 4 8 ",
", = * = & 4 0.%.- , X.4 - 4 * 4 e +.- 1 r.M.5 - C r , f o.4 4 4 , = * = & 5 0.%., , X.4 - C * : r P - 1 5.M.5 : P P , e { 4 4 8 ",
"P - * - & 5 p.&.: * T q 4 O.4 +.f T , w 6.N.d : t r - r C : , r P * * - & 5 u.&.: * T 4 4 X.4 +.f T - w 6.M.d : t e - r C : , r ",
"P & - r 4 0.N.7.S - T 1 , r & , f t 1 2 2.x.;.* u u * : , & - f M & - r 4 0.x.7.5 - ^ < - r & , f e 1 2 2.x.;.* u u * : , & - u ",
"e * C X.< ;.N.8.4 * , : 7 : 7 ; y f - < k.B.y o 4 , > 6 , 4 4 f r * r j.o ;.N.8.4 * : * , - , ; d j - < k.B.y o : - > 6 , : 4 e ",
"O.- 4 4 O 2 z.6.- & , : 8 7 P , - r , - 5 5 : - 4 - > > - - 4 ` { * r 4 o 2 z.6.- & , * 4 , C , - r , * 5 5 4 , 4 - > > : - 4 l ",
"T , - - * 4 ^ d , - r : , 4 T < ; , > > : : ; , 4 - , , 4 4 4 P T - , & - < 0.d , - r * , 4 T 4 ; , > ; : : ; 6 4 - - , 4 4 4 G ",
", , - - : , : : - , P * - 4 ^ 1 , > & > 4 4 , > 4 * - r ^ 5 : , , - : * 4 : 4 : , , P - - 4 ^ < , > & > 4 4 , > q - - r _ 5 : - ",
"; , , , r - ; ; = , T - : p e.t r - & , S _ 4 - r * * f t._ : ; & 4 - 4 4 , ; - = , T - : p j.r 4 - & , S _ 4 - P - - j t.0.: & ",
"- , , 4 0 , > , 1 t { , : 4 X.q < * , t 5 y y , O., - :.l.0.4 - - 4 - r : M ; , 4 r X.- : 4 @.4 < * 1 r 5 y y , @., - :.l.0.4 > ",
", , , q r r , > y j e.4 : - C - * - r r - < r - +., 1 5.z.q.4 , - - - t r r : - y j e.4 - - C - * - P e < < r - +., 1 6.x.5.4 , ",
", ; - t e e , & w y e.4 - ; , - - , G 0 & 4 r = > & 1 6.x.-.< = , ; 4 1 { p r & y y e.1 - & 7 - ; , G r * : r = ; & 1 6.x.-.< = "
};
