/* XPM */
static char *ecd8e8decef64b9dbc3b84124a31ec63hSiyatk6W5EK3L9u[] = {
/* columns rows colors chars-per-pixel */
"64 64 256 2 ",
"   c #040301",
".  c #0A0303",
"X  c #0B0A03",
"o  c #0B0A0B",
"O  c #04020B",
"+  c #130400",
"@  c #160B07",
"#  c #17120B",
"$  c #0E1316",
"%  c #151312",
"&  c #1C1514",
"*  c #1D1915",
"=  c #1E1A1B",
"-  c #19151A",
";  c #0B0E0F",
":  c #210E03",
">  c #271707",
",  c #221615",
"<  c #221A15",
"1  c #2A1B15",
"2  c #211718",
"3  c #231B1A",
"4  c #2B1D1B",
"5  c #291615",
"6  c #311E1C",
"7  c #381E15",
"8  c #3D1D0C",
"9  c #1C221D",
"0  c #26211B",
"q  c #2C231E",
"w  c #2A281B",
"e  c #32241D",
"r  c #372618",
"t  c #382B14",
"y  c #191F27",
"u  c #251E22",
"i  c #341F21",
"p  c #2C2422",
"a  c #2D2A23",
"s  c #2D2B29",
"d  c #262524",
"f  c #332523",
"g  c #3C2624",
"h  c #342B24",
"j  c #3B2A25",
"k  c #342B2A",
"l  c #3A2C2B",
"z  c #382629",
"x  c #35322A",
"c  c #3C332C",
"v  c #393427",
"b  c #3C3432",
"n  c #393633",
"m  c #302F2D",
"M  c #1F2022",
"N  c #45250A",
"B  c #492A18",
"V  c #522C16",
"C  c #593519",
"Z  c #453A1D",
"A  c #66391C",
"S  c #723D19",
"D  c #432B2A",
"F  c #442926",
"G  c #41342C",
"H  c #453C2D",
"J  c #493627",
"K  c #583623",
"L  c #433A35",
"P  c #453A36",
"I  c #522E20",
"U  c #663B23",
"Y  c #77372E",
"T  c #364038",
"R  c #65431B",
"E  c #76441A",
"W  c #4B432C",
"Q  c #57442B",
"!  c #4C4332",
"~  c #4B443D",
"^  c #474335",
"/  c #554B33",
"(  c #554C3B",
")  c #574837",
"_  c #5C5338",
"`  c #6C4426",
"'  c #754C2B",
"]  c #784828",
"[  c #77542A",
"{  c #6A4A37",
"}  c #754A34",
"|  c #65563A",
" . c #7A5535",
".. c #6B623C",
"X. c #5F411F",
"o. c #483F40",
"O. c #534C43",
"+. c #5C4D43",
"@. c #5D5344",
"#. c #5C5549",
"$. c #5D564B",
"%. c #4A484E",
"&. c #655B45",
"*. c #675947",
"=. c #775B46",
"-. c #625E5F",
";. c #6C6247",
":. c #786549",
">. c #6E6353",
",. c #726553",
"<. c #756955",
"1. c #746F70",
"2. c #C93C32",
"3. c #834C28",
"4. c #85552B",
"5. c #895A36",
"6. c #8A4D38",
"7. c #8B6439",
"8. c #96673A",
"9. c #976C36",
"0. c #A67438",
"q. c #B06C2D",
"w. c #A65C17",
"e. c #C37816",
"r. c #DD6118",
"t. c #93584E",
"y. c #8A6947",
"u. c #976947",
"i. c #9B7548",
"p. c #8A765A",
"a. c #987B58",
"s. c #8B6D57",
"d. c #A87948",
"f. c #A97D55",
"g. c #AE6F4D",
"h. c #897969",
"j. c #8B7C6E",
"k. c #B2736A",
"l. c #C16D4A",
"z. c #D86A62",
"x. c #902209",
"c. c #AD950F",
"v. c #91833C",
"b. c #B59333",
"n. c #CA9233",
"m. c #E8A318",
"M. c #BAC634",
"N. c #9D855B",
"B. c #AB834A",
"V. c #B1894D",
"C. c #A98556",
"Z. c #B88A57",
"A. c #B9935B",
"S. c #B9924D",
"D. c #9A8568",
"F. c #9D9075",
"G. c #A88A66",
"H. c #BA9566",
"J. c #A99478",
"K. c #B69975",
"L. c #B18F6A",
"P. c #BDA777",
"I. c #BBA96B",
"U. c #B3A14F",
"Y. c #C3955D",
"T. c #C78F4F",
"R. c #C2A551",
"E. c #C59A68",
"W. c #C8936D",
"Q. c #C6A369",
"!. c #C8A677",
"~. c #D6AB79",
"^. c #CCB176",
"/. c #CDC265",
"(. c #CAD056",
"). c #E0D426",
"_. c #7F7D80",
"`. c #928B86",
"'. c #A79585",
"]. c #B39887",
"[. c #B7AB8D",
"{. c #9B9CA1",
"}. c #A9A8A8",
"|. c #B7B7BA",
" X c #B3B1AD",
".X c #AE9DB0",
"XX c #C9A985",
"oX c #D5AB87",
"OX c #CEB28C",
"+X c #C8B684",
"@X c #D7B68C",
"#X c #CCBA94",
"$X c #DBBC95",
"%X c #D7BB97",
"&X c #CDAB95",
"*X c #E6BA8E",
"=X c #D3BCA8",
"-X c #E1BFA6",
";X c #B8C7A1",
":X c #D9C498",
">X c #CFC694",
",X c #E4C49A",
"<X c #F0CA9B",
"1X c #DBC5A6",
"2X c #D5D1B5",
"3X c #E4C8A7",
"4X c #E3CDB7",
"5X c #EDD5B8",
"6X c #F0D1B3",
"7X c #EEEBBC",
"8X c #BCBDC2",
"9X c #BDC2D0",
"0X c #C6C7CB",
"qX c #CCCDD2",
"wX c #C8CAD6",
"eX c #CDD3D7",
"rX c #D1D2D6",
"tX c #D4D5DA",
"yX c #D9DADE",
"uX c #D8D8DA",
"iX c #D2D1C7",
"pX c #EADBCA",
"aX c #E5DCD6",
"sX c #ECD7CB",
"dX c #D8E8DB",
"fX c #E9E4DB",
"gX c #F3E6D4",
"hX c #DCDDE2",
"jX c #D7DAE4",
"kX c #D2DBEE",
"lX c #E4DCE5",
"zX c #F8DBE7",
"xX c #DEE0E5",
"cX c #DCE5EA",
"vX c #D4EAF2",
"bX c #E2E3E6",
"nX c #E4E5EA",
"mX c #EAE6EC",
"MX c #E7E9ED",
"NX c #E9EAED",
"BX c #EBE7E5",
"VX c #F2ECEC",
"CX c #F5F5EC",
"ZX c #E6ECF3",
"AX c #ECEDF2",
"SX c #E5E5F7",
"DX c #F5EAF9",
"FX c #EEF1F4",
"GX c #EDF4FA",
"HX c #E8F5F9",
"JX c #F2F3F5",
"KX c #F3F5FA",
"LX c #F5FAFE",
"PX c #FCFDFE",
"IX c #FBF8F6",
"UX c #EAF0EC",
/* pixels */
"& & * < 3 3 3 3 0 < < * & & % % & & & % % % % % % & & & , 1 f z j j g g g g g j f f f f q 3 , < 2 & & % & - & * & & , , , 5 1 1 ",
"& * * 3 3 3 3 3 < < * * & & & & & & & & & & & & & * < 3 4 f z D D D D F F F g g g f f f q 4 < , 2 & & % % % & & & & , > , 5 5 1 ",
"& * * 3 3 3 3 3 * * * & & & & & & & & & & & & & * 3 4 p f f l D D D D D F F g g g g g g f 6 4 1 2 & & % % % % % % & & & , 5 1 1 ",
"& & * * 3 3 3 3 * & & & & & & & & & & & = = = < , 3 p p f f z l F D D D D F F g F D D l g f 6 4 < & & % % # % % % % % & , < 1 1 ",
"& & & * * * * * & & & & & & & & & & & & < < 3 3 4 p f f f f f z F F D D D D F F D D D D j g f 6 < & & % % # % % % % % & & , 3 4 ",
"& & & * * * * * , , & & & & & , & & , 2 < < 3 3 u p f k k k k k j j D D D D D D D D D l j f e q , & & % % % % % % % & % & , 3 3 ",
"& * * * * * * * , , , & & & , , & & 2 , 2 < < < 4 i f f k k l l j j j j j j j j l l j j f e 4 4 2 , % % % % - - % % % & & & < < ",
"* * < 3 3 3 = = < < , , , , , , , , 2 2 2 2 2 2 , 1 4 p f f l c f f e e e e e e f f f f q q 3 < 2 & & % % - - * - - & & & & , , ",
"3 3 3 0 0 0 0 0 4 4 4 1 1 5 5 5 , , 4 e 5 > 1 , 1 1 1 1 1 4 q p < & < 0 & & a x h 0 e g 1 , 3 u & & & & & & & & & & & & & & & * ",
"3 0 0 q q q q q q q 4 4 1 1 1 5 4 , , , 1 l b p x d # X o % = d 0 % % 3 & % & % a 0 f j 4 3 < & & & & & & & % % & & & & & & & * ",
"q q q q p q q q q q q 4 4 4 1 1 1 , 3 4 k P L d $ ; ; $ - $ O O .   . % % = a s d d p p < 3 3 # & & & & & & % % & & & & & & & & ",
"q q q p p p q q p q q q 4 4 4 4 5 , f n s = #   o X   X o o o X 0 = = %     % = 9 = M = % , 4 & , & , & * & & & & & & & & & & & ",
"q q q q p p q q q q q q 4 4 4 4 e 1 f k o     X > > t t r > > :     X @ X X X   X X % - % = q < 3 3 < < , , & & & & & & & & & & ",
"q q q q p q q q q q q 4 4 4 6 4 f , * &   . Z :.G.K.OX#XXXK.N.a.'.F.'.'.J.D.&.t @ . X - - = 0 < 3 3 3 3 3 , , * & & & & & & & & ",
"q q q p p p p q q q q q 4 6 6 6 1 # X   @ W D.OX6X6X3X:X%X@X:X:X3X1X6X5X5X5X%XJ.Q > + % - = 3 < 4 4 3 3 3 , * & & & & & & & & & ",
"q q p p a a a p q q q e 6 6 6 6 & @     0 s.XX@X#X#X#X#X>X>X>X>X%X%X,X%XOX@X$XOXG.Q @ @ % * 3 < 3 3 3 3 < , & & & & & & & & & & ",
"0 w q q q e e e p p e 1 r g 4 @ X a 1 r =.K.+X^.@X:X3X1X1X1X:X3X1X1X3X3X$XOX+X+XXX .+ < O O - X 2 2 2 2 2 2 2 < < , , , 4 4 4 4 ",
"q w a h h f e e p f e 1 6 f 3 o ; * r { J.OX+XP.3X1X=X1X3X6X3X,X3X3X4X4X3X5X6X:X$XG.Z X o O o @ 2 2 2 2 , 2 < < 3 < < 3 4 p p q ",
"a h h h h h f f p f q 1 e f u o O   t a.XXL.y.y.r r F ) =.a.L.C.H.D.s.*.( { =. .N.G...  . O . 5 2 2 2 2 < < 3 3 4 3 3 4 p p p p ",
"h h h h h h f f q e q q f k u % $ X | OX*XC.} { +.e > + + C G.!.A.R : # 2 r { u.5.H.K.W % ;   % < 2 2 < < 3 4 u 4 4 4 p p f p p ",
"a h h h h h f e e e q p f p 4 & % & D.:X!.5.V B 1 + + @ > :.,X7X*X' + + 4 g K U S d.XXJ.@ $   ; < < < < 3 4 u p p p p p f h f p ",
"w a h h h f e e e e p p 4 4 e r . + D.:XG.y.{ { { Q =.p.D.[.@XXX@XG.=.Q J I V N 3.u.!.[.    o # < < < 3 4 u p p p p p k k k k h ",
"q q a h h f e e e e p q 4 r K { 7 @ F.5X1X1X1X1XoXXXXXOX%X1X3X$XOX@X:X%XXXXX%X-XoXOX:X#X> > D B 2 < < 3 4 p p p h h k l n b l k ",
"q q w h h f f e e q q q e I  .u.:.B J.pX2X4X1X%X~.*X,X$X:X:X3X6X5X%X$X<X,X@X%X1X2X2X>X#XJ I s.t.2 < 3 4 4 p p f k k l b b b b c ",
"q p f h h f e e q k k f r V 6.T.Y.7.P.$X@X@X!.,X$X,X@X$XE.7.7.5.y.y.K.-X3X3X3X@X~.@XOX=X=.u.l.x.p 0 3 3 3 p a k n n b b L P ^ ~ ",
"p p h h l j j j l k f h r B 6.W.3.i.!.$XL.W.!.XX#X:X%X!.y.C A ' N ` G.%X%X%X1X:X~.Q.^.:Xi.8.W.g.4 3 3 3 3 p s k n n b L P ~ ~ ~ ",
"a a h c c c c G H c j l j 7 } K.W.!.L.,XC.f.E.^.+X+X#X%X3X6X6X6XgX6X-X1X:X:X>XP.Y.B.S.Y.Z.W.oXt.3 = = 3 u d s m n b L P ~ O.O.O.",
"s k x c c c G G F G G L G r J =.oXXXG.@Xf.d.E.^.I.!.,XoXK.k.6.Y } t.K.@X@X+X^.I.Q.V.S.Y.E.@X].D 3 = = u u d s m n b L ~ O.O.#.$.",
"s k x x c v c c r J H G G D g D K { a.L.d.Z.Q.I.*X!.H.5.] t.t.k.k.t.] 6.Z.~.~.Q.!.A.H.~.7.=.P y u u u u p s k m b L ^ ~ O.#.$.$.",
"s s h h x v v v h P G h G P l f 5 > | C.E.E.!.I.~.Y.f.u.u.g.6.Y Y 6.6.5.d.Z.Y.Q.H.E.H.a.: q - y p p p p s k m n P ~ ~ O.#.$.$.$.",
"a a a a h h v v x b c h G P c l %.a t K.!.Y.E.H.Z.E.A.f.5.S A A U ' ] 8.A.W.Z.f.S.E.K.:.# n m m p p a h k c b b ~ O.O.#.$.$.$.#.",
"d d a a h v v v n n x c P c h c y n w J.f.d.E.C.V.A.C.Q.oXXX$XOX&X3X@XQ.E.V.i.d.b.0.G.,.a 9 9 s q a a h x b L P O.#.#.$.$.$.#.#.",
"0 q q h h l c G v c c c c v c c k n < D.C.S f.G.Z.V.d.d.d.i.i.y.i.C.C.d.d.V.V.i.i.R K.D.& M n f a x v v c H ! ~ +.@.*.*.*.*.*.&.",
"a a h h h c G G c c c c c c c l n a < p.oX9.5.` 4.5.8.7.' C B 8 8 V U ' 5.7.5.[ R i.@X:.< n n f v v v c H ! ! ( @.&.*.*.*.*.*.*.",
"v h h h h c G G c c c c c c l k b p q =.,XA.5.' U '  .} K r 6 f 6 7 B K ` ` ` ` [ A.*Xp.w m w v c G H H ! ! ) _ &.&.*.>.,.,.>.>.",
"v x h h h l G L G c c c c l k k l n c | ,XZ.i.i.` ` ` K B r l P P D F K U A ' 7.Z.V.~.L.t w v v H H H ! ! ) _ | *.*.;.,.<.<.<.,.",
"c x h h h l c G G c c l l l k z p b a | $XB.f.8.[ ] R R C t > > > > N ` ' [ 7.B.V.V.!.K.t v ^ J H H W ! / ) | | *.;.,.<.<.<.,.,.",
"x x h h h h l c l l l l l k z z f p & *.OXZ.Y.7.7.7.i.C.i.[ N > > N ' d.Z.B.d.V.B.Y.Q.XX;.L w W H W ! / / / _ | ;.;.:.,.,.,.>.*.",
"a a h h h h h j j j z f f z l z l p %.'.XXA.Y.d.i.d.Z.E.E.d.4.] '  .i.A.E.Y.V.B.A.A.A.@Xh.<.( W W W / / / _ | | ..;.;.;.;.*.*.@.",
"q q q q h h f f h f f f z z z z f b |.CXOXZ.0.d.u.8.8.d.9.8.8.g.5.4.3.4.9.d.d.f.A.V.H.XX,. X Xr W ! / / / _ | | | ..;.*.*.| _ ) ",
"a q q 0 0 p p p k f f f z D D F %.tXIXF.C.A.f.8.u.5.5.5.} ` R ` U C A ] 5.8.u.i.q.0.E.K.B [.IX1.! W W / | | | | | &.;.*.( ! ! ) ",
"* q p p q 4 p p , p k l i 6 f l jXPXBX( { !.7.0.8.5.4.3.' A V N V V A [ 5.4.4.8.0.Z.i.{ F.aXCXJXfX}.&.H W _ &.| >.&.( ( &.@.H j ",
"h q 3 , 3 4 i p p p u & 2 o.`.|.LXFXPX}.J s.7.0.4.E E ] ] ` K V I B C ' ' S E 4.4.y.G.j.aXIXMXPXIXIXCX2Xj.( ! @./ _ | ) H J J ) ",
"& , 4 u 4 , 3 p 3 & p -. XMXPXLXJXxXLXKX1.K 7.0.9.7.4.3.] U K B J B C U ] ] ] 4.y.h.2XfXMXAXZXcXPXFXMXFXVXrX}.`.( ! ! ) &._ J r ",
"q 3 , 3 u 3 & & P j.qXIXLXFXFXPXPXFXjXMXlXh.{ [ 7.8.5.3.] A V B B V V C ] 5.5.' '.aXBXNXxXSXGXLXZXFXLXPXJXAXJXPXfX Xh.O.J G G j ",
"& 4 p %   = 1.|.bXNXJXJXNXbXxXxXJXxXLXMXPXuX'.D.:.:.5.] S A C B N V V C R ' ` C {.BXuXMXcXGXLXJXLXFXFXJXKXAXMXnXJXIXIXaX X1.O.l ",
"s X   s _.0XFXPXMXAXAXnXxXnXJXPXPXyXPXMX0XbXFXlX X'.s.] S A V N V C A ` U C K {  X|.yXKXZXKXIXuXFXnXyXbXMXNXNXAXMXnXNXLXPXJX0X}.",
"  n `.uXPXKXNXAXFXMXnXMXAXJXNXbXmXIXrXCXxXxXSXwXMX=Xh.` ]  .' C A C A  .` C =.'.NX0XZXcXFXnXBXIXUXUXJXIXJXMXMXVXZXZXZXAXNXAXJXPX",
"{.yXPXKXNXKXJXhXlXlXlXlXnXmXmXmXAXNXMXnXbXbXnXnXaX2X'.s.y.a.f.a.a.a.G.J.a.p.].sXJXJXAXNXNXMXMXMXNXNXNXNXNXNXNXNXAXAXFXAXAXAXFXJX",
"hXKXPXKXNXAXNXbXmXmXmXMXMXMXmXmXNXMXnXbXbXbXnXnXNXBXuX2X4XpXgXpXpXpXpXgXgXaXBXIXNXNXNXNXNXNXFXFXNXNXNXNXNXNXNXNXAXAXNXNXMXnXMXMX",
"PXFXNXAXAXnXMXAXAXAXAXAXNXMXMXMXnXbXbXbXbXnXMXMXZXHXGXNXbXbXxXhXbXyXhXnXFXFXZXnXJXJXJXAXNXNXNXNXNXNXNXNXMXMXMXMXAXAXAXAXAXAXAXAX",
"AXhXhXMXJXAXAXFXAXAXAXAXAXNXNXNXbXbXbXbXnXMXNXNXcXZXGXZXZXHXHXHXZXGXGXGXHXLXLXLXKXJXJXNXNXMXnXnXNXNXMXMXMXnXnXnXbXbXbXnXNXNXMXnX",
"NXMXMXNXAXFXAXMXNXNXNXNXNXNXNXMXbXbXbXnXMXNXNXNXNXVXAXFXGXLXPXPXKXPXPXKXFXJXIXIXNXNXNXMXNXNXNXAXNXNXNXNXNXMXMXnXbXbXnXNXAXAXMXnX",
"NXFXAXnXnXAXAXMXMXMXMXMXMXNXNXNXnXMXMXNXNXNXNXNXCXVXNXNXNXMXbXaXfXbXbXbXBXVXVXfXAXAXNXNXNXAXAXAXMXMXMXMXNXNXMXMXnXnXnXMXAXMXxXyX",
"nXNXMXnXnXAXFXAXMXMXMXMXMXMXZXZXMXMXNXNXMXMXMXnXVXNXAXGXKXKXIXIXLXJXJXIXPXPXIXJXNXNXnXnXbXbXbXbXhXhXbXbXbXbXbXbXtXrXrXtXyXtXqX0X",
"AXNXNXAXFXAXAXAXAXAXAXAXAXAXAXAXNXNXNXMXMXnXbXbXbXcXcXcXjXhXbXBXGXHXFXMXyX0XqXjXrXrXrXrXrXtXuXyXrXrXrXtXtXuXuXuXyXyXyXhXnXxXtXqX",
"NXAXFXNXbXAXAXrXyXqXrXyXyXtX0XtXtXrXqXqXqXrXtXtXrXrXtXtXyXhXhXhXLXKXAXnXbXbXnXMXAXAXAXAXAXAXFXJXSXPXDX XI.^.#X7XHXHXUX7XfXDXmX2X",
"bXbXhXtXqXrXqX8XqXtXbXbXhXtXyXnXtXnXLXLXAXMXAXLXAXAXAXAXAXAXAXNXbXnXMXNXAXAXNXMXNXNXNXAXAXAXAXAXgX[./.b.q.l.w.l.n.XXlXHXvXkXeXeX",
"qXqXtXhXbXbXbXhXtXbXAXMXMXMXAXAXPXAXhXhXNXJXNXhXAXAXNXNXnXnXbXxXtXhXbXMXAXAXAXNXMXMXMXNXNXAXAXAX>Xw.r.n.b./.T.e.e.w.&XSXvXdXtXkX",
"qXtXbXFXLXAXxXxXbXMXnXhXJXJXPXMXnXNXAXJXFXAXNXAXMXNXNXNXMXMXnXnXbXxXxXxXbXnXAXAXMXMXMXNXNXNXNXNX2Xc.*X;Xc.r.z.(.sXv.U.5XzXfXiX0X",
"8X0XqXyXAXnXtXhXxXbXhXyXAXtXFXhXKXJXMXhXhXhXMXAXMXMXNXNXNXNXNXMXNXnXxXhXhXbXMXAXMXMXNXNXNXNXNXNX|.R.&XdX).r.2.M.gXv.U.5XzXgXiXwX",
"|.8X|.8XhXMXbXFX0XtXnXNXJX9XKXPXrX0X|.|.qXhXbXhXnXnXnXnXnXbXbXxXbXbXbXbXbXnXnXnXMXMXMXMXMXMXNXNXVX*X2.q.R.b.n.m.e.w.&XSXvXcX0XkX",
"rXhX8X XrXxXtXhXMXnXnXyX|.%.-.1.`.}.rXAXAXAXAXJXAXAXAXAXNXMXnXnXyXhXhXbXbXbXbXbXnXnXnXnXnXnXnXnXNXCX>XB.z.g.q.w.n.L.lXSXkXkX}..X",
"8X0X}.{.0XhXrXtXrX0XtXAXAX1.}.|.AXAXMXnXnXnXbXbXbXbXbXbXbXbXxXxXhXhXhXhXhXhXbXbXnXnXnXnXnXnXnXnXvXlXSXSX2X[.`. XkX9XAX2XsXDX.XF."
};
