/* XPM */
static char *_fa6ec1315e54cddb41314c9ab55b3faZfLis3sGGCloniCY[] = {
/* columns rows colors chars-per-pixel */
"64 64 138 2 ",
"   c None",
".  c #020000",
"X  c #0D0000",
"o  c #140000",
"O  c #1C0000",
"+  c #240000",
"@  c #2C0000",
"#  c #350000",
"$  c #3C0000",
"%  c #430000",
"&  c #4A0000",
"*  c #540000",
"=  c #5A0000",
"-  c #640000",
";  c #6B0000",
":  c #730000",
">  c #7D0000",
",  c #850000",
"<  c #8F0000",
"1  c #960000",
"2  c #9B0000",
"3  c #A40000",
"4  c #AB0000",
"5  c #B40000",
"6  c #BB0000",
"7  c #C40000",
"8  c #CC0000",
"9  c #D40000",
"0  c #DC0000",
"q  c #E50000",
"w  c #EC0100",
"e  c #E50900",
"r  c #EB0900",
"t  c #F50100",
"y  c #FE0100",
"u  c #F00900",
"i  c #FF0B00",
"p  c #FF1300",
"a  c #FF1B00",
"s  c #FF2300",
"d  c #FF2A00",
"f  c #FF3300",
"g  c #FF3C00",
"h  c #FF4400",
"j  c #FF4900",
"k  c #FF4A00",
"l  c #FF4B00",
"z  c #FF4C00",
"x  c #FF4D00",
"c  c #FF4C00",
"v  c #FF5000",
"b  c #FF5100",
"n  c #FF5200",
"m  c #FF5300",
"M  c #FF5400",
"N  c #FF5500",
"B  c #FF5600",
"V  c #FF5700",
"C  c #FF5400",
"Z  c #FF5900",
"A  c #FF5A00",
"S  c #FF5B00",
"D  c #FF5C00",
"F  c #FF5D00",
"G  c #FF5C00",
"H  c #FF6100",
"J  c #FF6200",
"K  c #FF6300",
"L  c #FF6500",
"P  c #FF6700",
"I  c #FF6400",
"U  c #FF6900",
"Y  c #FF6A00",
"T  c #FF6C00",
"R  c #FF6E00",
"E  c #FF6F00",
"W  c #FF6C00",
"Q  c #FF7000",
"!  c #FF7100",
"~  c #FF7300",
"^  c #FF7400",
"/  c #FF7600",
"(  c #FF7700",
")  c #FF7400",
"_  c #FF7800",
"`  c #FF7900",
"'  c #FF7A00",
"]  c #FF7C00",
"[  c #FF7C00",
"{  c #FF8400",
"}  c #FF8500",
"|  c #FF8700",
" . c #FF8300",
".. c #FF8B00",
"X. c DarkOrange",
"o. c #FF8D00",
"O. c #FF8E00",
"+. c DarkOrange",
"@. c #FF9600",
"#. c #FF9600",
"$. c #FF9800",
"%. c #FF9900",
"&. c #FF9A00",
"*. c #FF9B00",
"=. c #FF9F00",
"-. c #FFA100",
";. c #FFA200",
":. c #FFA700",
">. c #FFA400",
",. c #FFA800",
"<. c #FFA900",
"1. c #FFAA00",
"2. c #FFAB00",
"3. c #FFAB02",
"4. c #FFAE05",
"5. c #FFAA00",
"6. c #FFB109",
"7. c #FFB10A",
"8. c #FFB30B",
"9. c #FFB710",
"0. c #FFBB15",
"q. c #FFBE18",
"w. c #FFC11C",
"e. c #FFC11C",
"r. c #FFC521",
"t. c #FFCA27",
"y. c #FFCE2B",
"u. c #FFD534",
"i. c #FFD332",
"p. c #FFDC3C",
"a. c #FFE141",
"s. c #FFE94B",
"d. c #FFEB4E",
"f. c #FFEE52",
"g. c #FFF155",
"h. c #FFF55A",
"j. c #FFF85E",
"k. c #FFFF66",
/* pixels */
"                                                                                                                                ",
"                                                    .                                                                           ",
"                                                  = 3 ;                                                                         ",
"                                                . > y 9 ;                                                                       ",
"                                                  % 4 y 2 .                                                                     ",
"                                                    % 5 2 .                                                                     ",
"                                                      & =                                                                       ",
"                                                                                                                                ",
"                                                            $ =                                                                 ",
"                                                            * 8 =                                                               ",
"                                                            * y 9 =                                                             ",
"                                                            % 7 y 9 *                                                           ",
"                                                              & t y 9 *                                                         ",
"                                          $ #                 & t y y 0 *                                                       ",
"                                        . 1 < @               : y y y y 0 *                                                     ",
"                                        . 2 y ;             * t i p i y y 9 O                                                   ",
"                                        . , t :             * y p x g i y q %                                                   ",
"                                          o < ;             * y p m h i y y 9 +                                                 ",
"                                            O               * y p m N h i y q %                                                 ",
"                                                            - y a m N j i y y 9 @                                               ",
"                                                          * q p j N N m h i y q @                                               ",
"                                                          - y p m N N N N g i q @                                               ",
"                                                        * 0 y a m N N N N j i q @                                               ",
"                                          X             - y p h N N N N N j i q @                   ; ;                         ",
"                            X             > =         - 0 y a m N L } A N j i q @       .           # #                         ",
"                          O < #         X 2 ;       = 9 y p h m J @.*.A N j i q @       .                                       ",
"                            &           > q ;       : y y a N m U 2.*.A N j r -       X , &                                     ",
"                                      . 3 y 8 =     ; y y a N m U :.*.A x a q +       X 5 *                                     ",
"                                      > 0 y y :     ; y p g N m U :.*.A j i q @     X , q 6 &                                   ",
"                                    . 4 y y y 7 * = 7 y s N N J X.2.*.A j r :     X , q y y =                                   ",
"                                    : 0 y a p y 7 7 y y a N m T 2.2.*.A j u < O X , q s i y =           .                       ",
"                                  X 5 y a h s y y y y p g N J ..2.2.-.] m d t 1 < q s j p y =           $ -                     ",
"                                  : 0 y f N g d p p p s N m T 2.2.2.2.*.F m d i y s x m p y =           : 1 .                   ",
"                  @ ;           X 6 y y f N N N g g h g N m T 2.2.2.2.*.A N m d d j N m p y =           : 1 .                   ",
"                  @ > O         X 6 y a h N N N N N N N J ( } :.2.2.2.-.( N N Q ` ` A g i y =           : 1 .                   ",
"                                X 6 y g N N L J m m m m Q 2.2.2.6.e.2.2.-.` ` -.2.X.F p y 5 %         % 4 7 &                   ",
"                                X , q g N N } ..Q Q Q Q } 2.2.6.u.s.4.2.2.2.2.:.X.F g i y &         % 4 i p 1 .                 ",
"                                  X 5 g N N } 2.2.2.2.2.2.2.2.e.k.d.4.2.2.2.:...F m p y 6 %       $ 4 i f f 6 %                 ",
"                                  X 5 d x N } 2.2.2.2.2.2.2.6.i.k.g.w.2.2.2.-.J m g i y > @     $ 4 i f j s y 3 .               ",
"                        .         X 5 y f N } 2.2.2.2.2.2.2.e.k.k.k.d.4.2.2.-.F x s i y t > % % 4 y d N g i y 3 .               ",
"                        #         X 1 w d x ` -.2.2.2.2.2.2.r.k.k.k.g.w.0.3.-.T N x s p i y t t i p f N j s y 3 .               ",
"                      + 6 @         o 5 y f N } 2.2.2.6.8.:.e.k.k.k.k.k.f.6.2.-.Q L N x s i p p f m m N f y y 3 .               ",
"                      & 7 @         . 4 y f N  .2.2.2.t.a.9.y.k.k.k.k.k.h.q.2.2.:.-.L m x x x x m N N N d y y 3 .               ",
"                    @ 9 q &         . 2 t f N  .2.2.4.i.k.j.k.k.k.k.k.k.k.g.q.2.2.:.Q N m m N F J A N N d y y 3 .               ",
"                    @ q y 9 @         O 4 d m ] :.2.t.k.k.k.k.k.k.k.k.k.k.k.f.8.2.2.-.T F F F ..-.( m N f y y 3 .               ",
"                    @ q i w %         . 1 t f A } 2.y.k.k.k.k.k.k.k.k.k.k.k.h.q.6.2.2.-.=.=.=.:.:.( m m d y t 1 .               ",
"                    $ e f i 9 %         + 4 f m ] 2.t.k.k.k.k.k.k.k.k.k.k.k.k.h.f.q.2.2.2.2.2.2.] A N f i y 3 +                 ",
"                  @ 8 i h p i 9 %       o 3 f N ] 2.4.i.k.k.k.k.k.k.k.k.k.k.k.k.k.g.0.2.2.2.2.:.Q m m s y y 1 .                 ",
"                  @ q i j h g i 9 & o o 1 w f N  .2.2.y.k.k.k.k.k.k.k.k.k.k.k.k.k.k.q.:.2.2.2.] A m d i y y 1 .                 ",
"                  @ q i j N m p y 9 7 7 w y f N  .2.r.h.k.k.k.k.k.k.k.k.k.k.k.k.k.k.q.:.2.2.:.Q m d i y y 4 @                   ",
"                  @ q i j N m h g p y y y y f ` -.2.y.k.k.k.k.k.k.k.k.k.k.k.k.k.k.h.q.2.2.:.] A m s y y y < .                   ",
"                    - w a j N N N h g g g g j } 2.2.y.k.k.k.k.k.k.k.k.k.k.k.k.k.k.t.4.2.:.] A m f i y y 4 $                     ",
"                    @ 0 y a j N N N N N N N ( =.2.2.8.p.k.k.k.k.k.k.k.k.k.k.k.k.j.0.2.2.:.T m N s y y 3 #                       ",
"                      - w y a j N N ` X...X.=.2.2.2.2.t.k.k.k.k.k.k.k.k.k.k.k.j.y.4.2.:.] F N f i y y > .                       ",
"                        ; q y a s h U ( ( @.2.2.2.2.2.8.p.k.k.k.k.k.k.k.k.k.j.y.4.2.:.] A m f i y y 4 %                         ",
"                          ; q y y a h N m U ( ( ( X.2.2.8.t.p.k.k.k.k.k.k.j.y.3.] ( ( F m f i y y 4 %                           ",
"                            - : 0 y a s s h N N m L ` X.2.2.8.y.y.y.y.y.y.t.3.] A N m f s i y y 4 %                             ",
"                              X ; > 0 y y a d s s g N L ] ] ] ] ] ] ] ] ] ] ` N d s s i y y 3 : %                               ",
"                                  . ; , 9 y y y y p d d d d d d d d d d d d d s i y y y 3 > $ .                                 ",
"                                      . - , , 7 y y y y y y y y y y y y y y y y y y 3 , # .                                     ",
"                                          . . = 1 < < < < < < < < < < < < < < < < < @ .                                         ",
"                                                . . . . . . . . . . . . . . . . . .                                             ",
"                                                                                                                                ",
"                                                                                                                                "
};
